!!!!SEGMENT: pl-cz--iii-740--002_zebrowski-marcin-jozef--eia-consonate.krn
!!!cenid: 17xx:2330
!!!COM: Żebrowski, Marcin Józef
!!!COM-rismID: pe30020322
!!!CDT: 1702-1770/06/29
!!!CNT: Polish
!!!OTL: Eia consonate
!!!PDT:
!!!AGN:
!!!SMS-siglum: PL-CZ
!!!SMS-shelfmark: III-740
!!!SMS-shelfwork: 002 W
!!!SMS-variant: Violone PL-CZ III-740:8r
!!!SMS-altvar: Violone PL-CZ III-740:8v
!!!NIFC-rismSourceID: 300033491
!!!NIFC-rismChildID: 300033493
!!!NIFC-islandoraID: pl-cz:25203
!!!URL-pdf-islandora: https://repozytorium.nifc.pl/islandora/object/pl-cz%3A25203/datastream/PDF/view
!!!URL-scan: https://polish.musicsources.pl/pl/lokalizacje/galeria/rekopisy/1471 @EN{Scan on Polish Music Sources Website} @PL{Skany w portalu Dziedzictwo Muzyki Polskiej w otwartym dostępie}
!!!IIIF:
!!!ONB-nifc: UWAGA: w zbiorze 1. Ave maris stella, 2. Eia consonate
!!!AIN: 1 cello 3 empty 1 organ 2 violn
!!!key:
**kern	**dynam	**kern	**dynam	**kern	**dynam	**kern	**dynam	**kern	**text	**kern	**dynam	**kern	**dynam
*part7	*part7	*part6	*part6	*part5	*part5	*part4	*part4	*part3	*part3	*part2	*part2	*part1	*part1
*staff7	*	*staff6	*	*staff5	*	*staff4	*	*staff3	*staff3	*staff2	*	*staff1	*
*Iorgan	*	*Icello	*	*Ivioln	*	*Ivioln	*	*Iempty	*	*Iempty	*	*Iempty	*
*I"Organo.	*	*I"Violone.	*	*I"Violino Secondo.	*	*I"Violino Primo	*	*I"Baſso Solo.	*	*I"Cornuo Secondo Ex G.	*	*I"Cornuo Primo Ex G.	*
*I'org	*	*I'vlne	*	*I'vl 2	*	*I'vl 1	*	*I'B	*	*I'cor 2 in G	*	*I'cor 1 in G	*
*clefF4	*	*clefF4	*	*clefG2	*	*clefG2	*	*clefF4	*	*clefG2	*	*clefG2	*
*	*	*	*	*	*	*	*	*	*	*ITrd3c5	*	*ITrd3c5	*
*k[f#]	*	*k[f#]	*	*k[f#]	*	*k[f#]	*	*k[f#]	*	*k[f#]	*	*k[f#]	*
*G:	*	*G:	*	*G:	*	*G:	*	*G:	*	*G:	*	*G:	*
*M2/4	*	*M2/4	*	*M2/4	*	*M2/4	*	*M2/4	*	*M2/4	*	*M2/4	*
=1	=1	=1	=1	=1	=1	=1	=1	=1	=1	=1	=1	=1	=1
!	!	!	!	!LO:TX:t=P:problem= brak partii alto viola	!	!	!	!	!	!	!	!LO:TX:a:t=|	!
!	!	!LO:TX:b:t=|	!	!LO:TX:b:t=|	!	!LO:TX:b:t=|	!	!LO:TX:a:B:t=Allegro aſsai	!	!LO:TX:b:t=|	!	!LO:TX:a:B:t=allo&colon; aſsai	!
!LO:TX:a:B:t=Allegro aſsai	!	!LO:TX:a:B:t=Allegro aſsai	!	!LO:TX:a:B:t=Allo aſsai	!	!LO:TX:a:B:t=Allegro aſsai	!	!LO:TX:a:t=20.	!	!LO:TX:a:B:t=Allegro aſsai	!	!	!
4GG/	.	4GG/	.	4G/	.	4g/	.	0r	.	4G/	.	4g\	.
!	!	!LO:TX:b:t=|	!	!LO:TX:b:t=|	!	!LO:TX:b:t=|	!	!	!	!LO:TX:b:t=|	!	!LO:TX:a:t=|	!
4BB/	.	4BB/	.	4B/	.	4b/	.	.	.	4B/	.	4b\	.
=2	=2	=2	=2	=2	=2	=2	=2	=2	=2	=2	=2	=2	=2
!	!	!	!	!LO:TX:b:t=|	!	!LO:TX:a:t=|	!	!	!	!	!	!LO:TX:a:t=|	!
4D/	.	4D/	.	4d/	.	4dd\	.	.	.	4d/	.	4dd\	.
8r	.	8r	.	8r	.	8r	.	.	.	8r	.	8r	.
!	!	!	!	!LO:TUP:b:problem=klamra łukowa	!	!LO:TUP:a:problem=klamra łukowa	!	!	!	!	!	!	!
8D/	.	8D/	.	24d/LL	.	24dd\LL	.	.	.	8d/	.	8dd\	.
.	.	.	.	24e/	.	24ee\	.	.	.	.	.	.	.
.	.	.	.	24f#/JJ	.	24ff#\JJ	.	.	.	.	.	.	.
=3	=3	=3	=3	=3	=3	=3	=3	=3	=3	=3	=3	=3	=3
!	!	!	!	!LO:TX:b:t=|	!	!LO:TX:a:t=|	!	!	!	!	!	!	!
8G\L	.	8G\L	.	8g/L	.	8gg\L	.	.	.	8g\L	.	8gg\L	.
!LO:TX:a:t=|	!	!LO:TX:a:t=|	!	!LO:TX:b:t=|	!	!LO:TX:a:t=|	!	!	!	!	!	!	!
8D\	.	8D\	.	8d/	.	8dd\	.	.	.	8d\	.	8dd\	.
!LO:TX:a:t=|	!	!LO:TX:a:t=|	!	!LO:TX:b:t=|	!	!LO:TX:a:t=|	!	!	!	!	!	!	!
8BB\	.	8BB\	.	8B/	.	8b\	.	.	.	8B\	.	8b\	.
!LO:TX:a:t=|	!	!LO:TX:a:t=|	!	!LO:TX:b:t=|	!	!LO:TX:a:t=|	!	!	!	!	!	!	!
8D\J	.	8D\J	.	8d/J	.	8dd\J	.	.	.	8d\J	.	8dd\J	.
=4	=4	=4	=4	=4	=4	=4	=4	=4	=4	=4	=4	=4	=4
!LO:TX:t=P:problem=mixed beam	!	!LO:TX:t=P:problem=mixed beam	!	!	!	!	!	!	!	!	!	!	!
16GG/LL	.	16GG/LL	.	16G/LL	.	4G/ 4d/ 4b/ 4gg/	.	.	.	4G/	.	4g\	.
16G\	.	16G\	.	16b/	.	.	.	.	.	.	.	.	.
16F#\	.	16F#\	.	16a/	.	.	.	.	.	.	.	.	.
16E\JJ	.	16E\JJ	.	16g/JJ	.	.	.	.	.	.	.	.	.
16D/LL	.	16D/LL	.	16f#/LL	.	4r	.	.	.	4r	.	4r	.
16C/	.	16C/	.	16e/	.	.	.	.	.	.	.	.	.
16BB/	.	16BB/	.	16d/	.	.	.	.	.	.	.	.	.
16AA/JJ	.	16AA/JJ	.	16cc/JJ	.	.	.	.	.	.	.	.	.
=5	=5	=5	=5	=5	=5	=5	=5	=5	=5	=5	=5	=5	=5
!LO:TX:b:t=|	!	!LO:TX:b:t=|	!	!	!	!	!	!	!	!	!	!	!
8GG/L	.	8GG/L	.	(16dd\LL	.	(16bb\LL	.	0r	.	[2G/	.	2G/	.
.	.	.	.	16cc\)	.	16aa\)	.	.	.	.	.	.	.
!LO:TX:b:t=|	!	!LO:TX:b:t=|	!	!	!	!	!	!	!	!	!	!	!
8GG/J	.	8GG/J	.	(16cc\	.	(16aa\	.	.	.	.	.	.	.
.	.	.	.	16b\JJ)	.	16gg\JJ)	.	.	.	.	.	.	.
!LO:TX:t=P:problem=mixed beam	!	!LO:TX:t=P:problem=mixed beam	!	!	!	!	!	!	!	!	!	!	!
16GG/LL	.	16GG/LL	.	4eeT\	.	4cccT\	.	.	.	.	.	.	.
16G\	.	16G\	.	.	.	.	.	.	.	.	.	.	.
16F#\	.	16F#\	.	.	.	.	.	.	.	.	.	.	.
16G\JJ	.	16G\JJ	.	.	.	.	.	.	.	.	.	.	.
=6	=6	=6	=6	=6	=6	=6	=6	=6	=6	=6	=6	=6	=6
8GG/L	.	8GG/L	.	(16dd\LL	.	(16bb\LL	.	.	.	2G/_	.	2G/	.
.	.	.	.	16cc\)	.	16aa\)	.	.	.	.	.	.	.
8GG/J	.	8GG/J	.	(16cc\	.	(16aa\	.	.	.	.	.	.	.
.	.	.	.	16b\JJ)	.	16gg\JJ)	.	.	.	.	.	.	.
!LO:TX:t=P:problem=mixed beam	!	!LO:TX:t=P:problem=mixed beam	!	!	!	!	!	!	!	!	!	!	!
16GG/LL	.	16GG/LL	.	4bt\	.	4ggT\	.	.	.	.	.	.	.
16G\	.	16G\	.	.	.	.	.	.	.	.	.	.	.
16F#\	.	16F#\	.	.	.	.	.	.	.	.	.	.	.
16G\JJ	.	16G\JJ	.	.	.	.	.	.	.	.	.	.	.
!LO:LB:g=original	!	!	!	!	!	!	!	!	!	!	!	!	!
=7	=7	=7	=7	=7	=7	=7	=7	=7	=7	=7	=7	=7	=7
*	*	*	*	*	*	*	*below	*	*	*	*	*	*
!	!	!LO:TX:b:t=|	!	!	!	!	!	!	!	!	!	!	!LO:DY:a
8GG~/L	.	8GG/L	.	(16d/LL	p	(16b/LL	p	.	.	2G/]	.	2G/	p
.	.	.	.	16c/)	.	16a/)	.	.	.	.	.	.	.
!	!	!LO:TX:b:t=|	!	!	!	!	!	!	!	!	!	!	!
8GG~/J	.	8GG/J	.	(16c/	.	(16a/	.	.	.	.	.	.	.
.	.	.	.	16B/JJ)	.	16g/JJ)	.	.	.	.	.	.	.
!LO:TX:t=P:problem=mixed beam	!	!LO:TX:t=P:problem=mixed beam	!	!	!	!	!	!	!	!	!	!	!
16GG/LL	.	16GG/LL	.	4eT/	.	4ccT\	.	.	.	.	.	.	.
16G\	.	16G\	.	.	.	.	.	.	.	.	.	.	.
16F#\	.	16F#\	.	.	.	.	.	.	.	.	.	.	.
16G\JJ	.	16G\JJ	.	.	.	.	.	.	.	.	.	.	.
!	!	!LO:LB:g=original	!	!	!	!	!	!	!	!	!	!	!
=8	=8	=8	=8	=8	=8	=8	=8	=8	=8	=8	=8	=8	=8
!LO:TX:t=P:problem=mixed beam	!	!LO:TX:t=P:problem=mixed beam	!	!	!	!	!	!	!	!	!	!	!
8GG/L	.	8GG/L	.	(16d/LL	.	(16b/LL	.	.	.	4G/	.	4g\	.
.	.	.	.	16c/)	.	16a/)	.	.	.	.	.	.	.
8GG/	.	8GG/	.	(16c/	.	(16a/	.	.	.	.	.	.	.
.	.	.	.	16B/JJ)	.	16g/JJ)	.	.	.	.	.	.	.
!	!	!	!	!	!	!LO:TX:t=P:problem=mixed beam	!	!	!	!	!	!	!
8GG/	.	8GG/	.	8B/L	.	8g/L	f	.	.	4r	.	8r	.
!	!	!LO:TX:a:t=|	!	!LO:TX:b:t=|	!	!	!	!	!	!	!	!	!
8G\J	f	8G\J	f	8g/J	.	8gg\J	.	.	.	.	.	8gg\	f
!	!	!	!	!	!	!LO:LB:g=original	!	!	!	!	!	!	!
=9	=9	=9	=9	=9	=9	=9	=9	=9	=9	=9	=9	=9	=9
!LO:TX:a:t=|	!	!LO:TX:a:t=|	!	!LO:TX:b:t=|	!	!LO:TX:a:t=|	!	!	!	!	!	!	!
8F#~\L	.	8F#\L	.	8f#/L	.	8ff#\L	.	0r	.	2r	.	8ff#\L	.
!	!	!LO:TX:a:t=|	!	!LO:TX:b:t=|	!	!LO:TX:a:t=|	!	!	!	!	!	!	!
8E~\	.	8E\	.	8e/	.	8ee\	.	.	.	.	.	8ee\	.
!	!	!LO:TX:a:t=|	!	!LO:TX:b:t=|	!	!LO:TX:a:t=|	!	!	!	!	!	!	!
8D~\	.	8D\	.	8d/	.	8dd\	.	.	.	.	.	8dd\	.
!	!	!LO:TX:a:t=|	!	!LO:TX:b:t=|	!	!LO:TX:a:t=|	!	!	!	!	!	!	!
8C~\J	.	8C\J	.	8c/J	.	8cc\J	.	.	.	.	.	8cc\J	.
=10	=10	=10	=10	=10	=10	=10	=10	=10	=10	=10	=10	=10	=10
!LO:TX:t=P:problem=mixed beam	!	!LO:TX:t=P:problem=mixed beam	!	!	!	!	!	!	!	!	!	!	!
.	.	.	.	.	.	8qqcc/	.	.	.	.	.	.	.
8BB/L	.	8BB/L	.	4B/	.	4b\	.	.	.	4r	.	4b\	.
16B\L	.	16B\L	.	.	.	.	.	.	.	.	.	.	.
16A\JJ	.	16A\JJ	.	.	.	.	.	.	.	.	.	.	.
!	!	!	!	!	!	!	!	!	!	!	!	!LO:LB:g=original	!
8B\L	.	8B\L	.	8r	.	8r	.	.	.	8r	.	8r	.
8E\J	.	8E\J	.	8e/	.	8ee\	.	.	.	8ee\	.	8ee\	.
!	!	!	!	!LO:LB:g=original	!	!	!	!	!	!LO:LB:g=original	!	!	!
=11	=11	=11	=11	=11	=11	=11	=11	=11	=11	=11	=11	=11	=11
!	!	!LO:TX:b:t=|	!	!	!	!LO:TX:a:t=|	!	!	!	!LO:TX:a:t=|	!	!LO:TX:a:t=|	!
8D'/L	.	8D/L	.	8d/L	.	8dd\L	.	.	.	8dd\L	.	8dd\L	.
!	!	!LO:TX:b:t=|	!	!	!	!LO:TX:a:t=|	!	!	!	!LO:TX:a:t=|	!	!LO:TX:a:t=|	!
8C'/	.	8C/	.	8c/	.	8cc\	.	.	.	8cc\	.	8cc\	.
!	!	!LO:TX:b:t=|	!	!	!	!LO:TX:a:t=|	!	!	!	!LO:TX:a:t=|	!	!LO:TX:a:t=|	!
8BB'/	.	8BB/	.	8B/	.	8b\	.	.	.	8b\	.	8b\	.
!	!	!LO:TX:b:t=|	!	!	!	!LO:TX:a:t=|	!	!	!	!LO:TX:a:t=|	!	!LO:TX:a:t=|	!
8AA'/J	.	8AA/J	.	8A/J	.	8a\J	.	.	.	8a\J	.	8a\J	.
=12	=12	=12	=12	=12	=12	=12	=12	=12	=12	=12	=12	=12	=12
!LO:TX:t=P:problem=mixed beam	!	!LO:TX:t=P:problem=mixed beam	!	!	!	!	!	!	!	!LO:TX:t=P:problem=mixed beam	!	!	!
.	.	.	.	.	.	8qqa/	.	.	.	.	.	.	.
8GG/L	.	8GG/L	.	4G/	.	4g/	.	.	.	8g\L	.	8g/L	.
16G\L	.	16G\L	.	.	.	.	.	.	.	16G/L	.	16d/L	.
16F#\JJ	.	16F#\JJ	.	.	.	.	.	.	.	16G/JJ	.	16d/JJ	.
8G\L	.	8G\L	.	8r	.	8r	.	.	.	8G/	.	8d/	.
8G\J	.	8G\J	.	8b/	.	(32ee\KLL	.	.	.	8r	.	8r	.
.	.	.	.	.	.	16.cc#X\JJ)	.	.	.	.	.	.	.
=13	=13	=13	=13	=13	=13	=13	=13	=13	=13	=13	=13	=13	=13
!	!	!	!	!	!	!LO:TX:a:t=|	!	!	!	!LO:TX:a:t=1	!	!LO:TX:a:t=1	!
8F#\L	.	8F#\L	.	8a/L	.	8dd\L	.	0r	.	2r	.	2r	.
8G\	.	8G\	.	8b/	.	(32ee\KL	.	.	.	.	.	.	.
.	.	.	.	.	.	16.cc#X\JJ)	.	.	.	.	.	.	.
!	!	!	!	!	!	!LO:TX:a:t=|	!	!	!	!	!	!	!
8F#\	.	8F#\	.	8a/	.	8dd\L	.	.	.	.	.	.	.
8G\J	.	8G\J	.	8b/J	.	(32ee\KL	.	.	.	.	.	.	.
.	.	.	.	.	.	16.cc#\JJ)	.	.	.	.	.	.	.
=14	=14	=14	=14	=14	=14	=14	=14	=14	=14	=14	=14	=14	=14
*	*	*	*	*	*	*	*	*	*	*	*	*2\right	*
8F#\L	.	8F#\L	.	8a\L	.	(16dd\LL	.	.	.	2d/	.	2a\	.
.	.	.	.	.	.	16ee\	.	.	.	.	.	.	.
8D\	.	8D\	.	16dd\L	.	16ff#\)	.	.	.	.	.	.	.
!	!	!	!	!	!	!LO:TX:a:t=|	!	!	!	!	!	!	!
.	.	.	.	16ee\JJ	.	16gg\JJ	.	.	.	.	.	.	.
8D\	.	8D\	.	16ff#\LL	.	16aa\LL	.	.	.	.	.	.	.
.	.	.	.	16gg\	.	16bb\	.	.	.	.	.	.	.
8D\J	.	8D\J	.	16aa\	.	16ccc\	.	.	.	.	.	.	.
.	.	.	.	16ff#\JJ	.	16aa\JJ	.	.	.	.	.	.	.
!LO:LB:g=original	!	!	!	!	!	!	!	!	!	!	!	!	!
=15	=15	=15	=15	=15	=15	=15	=15	=15	=15	=15	=15	=15	=15
8G\L	.	8G\L	.	8gg\L	.	(16bb\LL	.	.	.	4g\	.	4b\	.
.	.	.	.	.	.	16ddd\)	.	.	.	.	.	.	.
!	!	!	!	!	!	!LO:TX:a:t=|	!	!	!	!	!	!	!
8B\	.	8B\	.	8dd\J	.	16gg\	.	.	.	.	.	.	.
!	!	!	!	!	!	!LO:TX:a:t=|	!	!	!	!	!	!	!
.	.	.	.	.	.	16bb\JJ	.	.	.	.	.	.	.
8c\	.	8c\	.	(16cc\LL	.	(16aa\LL	.	.	.	8r	.	4aT\	.
.	.	.	.	16ee\JJ)	.	16ccc\)	.	.	.	.	.	.	.
!	!	!	!	!	!	!LO:TX:a:t=|	!	!	!	!	!	!	!
8d\J	.	8d\J	.	16a'\LL	.	16ff#\	.	.	.	8d/	.	.	.
!	!	!	!	!	!	!LO:TX:a:t=|	!	!	!	!	!	!	!
.	.	.	.	16cc'\JJ	.	16aa\JJ	.	.	.	.	.	.	.
=16	=16	=16	=16	=16	=16	=16	=16	=16	=16	=16	=16	=16	=16
.	.	.	.	.	.	8qqaa/	.	.	.	.	.	.	.
16r	.	16r	.	16r	.	4gg\	.	.	.	4B/	.	4g\	.
16G\LL	.	16G\LL	.	16b/LL	.	.	.	.	.	.	.	.	.
16D\	.	16D\	.	16g/	.	.	.	.	.	.	.	.	.
16BB\JJ	.	16BB\JJ	.	16d/JJ	.	.	.	.	.	.	.	.	.
!LO:TX:t=P:problem=mixed beam	!	!LO:TX:t=P:problem=mixed beam	!	!	!	!	!	!	!	!	!	!	!
8GG/L	.	8GG/L	.	8B/L	.	8r	.	.	.	4r	.	4r	.
8G\J	.	8G\J	.	8B/J	.	(32e/KLL	p	.	.	.	.	.	.
.	.	.	.	.	.	16.c#X/JJ)	.	.	.	.	.	.	.
!	!	!	!	!	!	!LO:LB:g=original	!	!	!	!	!	!	!
=17	=17	=17	=17	=17	=17	=17	=17	=17	=17	=17	=17	=17	=17
!	!	!	!	!	!	!LO:TX:b:t=|	!	!	!	!LO:TX:a:t=1	!	!LO:TX:a:t=1	!
8F#\L	.	8F#\L	.	8A/L	.	8d/L	.	0r	.	2r	.	2r	.
8G\J	.	8G\J	.	8B/J	.	(32e/KL	.	.	.	.	.	.	.
.	.	.	.	.	.	16.c#X/JJ)	.	.	.	.	.	.	.
!	!	!	!	!	!	!LO:TX:b:t=|	!	!	!	!	!	!	!
8F#\L	.	8F#\L	.	8A/L	.	8d/L	.	.	.	.	.	.	.
8G\J	.	8G\J	.	8B/J	.	(32e/KL	.	.	.	.	.	.	.
.	.	.	.	.	.	16.c#/JJ)	.	.	.	.	.	.	.
!	!	!LO:LB:g=original	!	!	!	!	!	!	!	!	!	!	!
=18	=18	=18	=18	=18	=18	=18	=18	=18	=18	=18	=18	=18	=18
8F#\L	.	8F#\L	.	16A/LL	.	16d/LL	f	.	.	2d/	.	2a\	.
.	.	.	.	16d/	.	(16f#/	.	.	.	.	.	.	.
8D\	.	8D\	.	16f#/	.	16a/	.	.	.	.	.	.	.
.	.	.	.	16a/JJ	.	16ccn/JJ)	.	.	.	.	.	.	.
!	!	!	!	!LO:TX:a:t=|	!	!LO:TX:a:t=|	!	!	!	!	!	!	!
8D\	.	8D\	.	16cc\LL	.	16ee\LL	.	.	.	.	.	.	.
.	.	.	.	(16a\	.	(16cc\	.	.	.	.	.	.	.
8D\J	.	8D\J	.	16g\	.	16b\	.	.	.	.	.	.	.
.	.	.	.	16f#\JJ)	.	16a\JJ)	.	.	.	.	.	.	.
=19	=19	=19	=19	=19	=19	=19	=19	=19	=19	=19	=19	=19	=19
!LO:TX:t=P:problem=mixed beam	!	!LO:TX:t=P:problem=mixed beam	!	!	!	!	!	!	!	!	!	!	!
8G\L	.	8G\L	.	8g/L	.	(16b\LL	.	.	.	4g\	.	4b\	.
.	.	.	.	.	.	16dd\)	.	.	.	.	.	.	.
!	!	!	!	!	!	!LO:TX:a:t=|	!	!	!	!	!	!	!
8BB/	.	8BB/	.	8d/J	.	16g\	.	.	.	.	.	.	.
!	!	!	!	!	!	!LO:TX:a:t=|	!	!	!	!	!	!	!
.	.	.	.	.	.	16b\JJ	.	.	.	.	.	.	.
8C/	.	8C/	.	(16c/LL	.	(16a\LL	.	.	.	8r	.	4a\	.
.	.	.	.	16e/)	.	16cc\)	.	.	.	.	.	.	.
!	!	!	!	!	!	!LO:TX:a:t=|	!	!	!	!	!	!	!
8D/J	.	8D/J	.	(16A/	.	16f#\	.	.	.	8d/	.	.	.
!	!	!	!	!	!	!LO:TX:a:t=|	!	!	!	!	!	!	!
.	.	.	.	16c/JJ)	.	16a\JJ	.	.	.	.	.	.	.
!	!	!	!	!	!	!	!	!	!	!LO:LB:g=original	!	!	!
=20	=20	=20	=20	=20	=20	=20	=20	=20	=20	=20	=20	=20	=20
!	!	!	!	!LO:TX:b:t=|	!	!LO:TX:b:t=|	!	!	!	!	!	!	!
4GG/	.	4GG/	.	8B/L	.	8g/L	.	.	.	8B/L	.	8g\L	.
!	!	!	!	!LO:TX:b:t=|	!	!LO:TX:b:t=|	!	!	!	!	!	!	!
.	.	.	.	8d/J	.	8d/J	.	.	.	16G/L	.	16d\L	.
.	.	.	.	.	.	.	.	.	.	16G/JJ	.	16d\JJ	.
!	!	!	!	!	!	!	!	!	!	!	!	!LO:LB:g=original	!
8G\L	.	8G\L	.	8G'/ 8d/ 8b/ 8gg/	.	8G/ 8d/ 8b/ 8gg/	.	.	.	8G/	.	8d/	.
8D\J	.	8D\J	.	8r	.	8r	.	.	.	8r	.	8r	.
!	!	!	!	!LO:LB:g=original	!	!	!	!	!	!	!	!	!
=21	=21	=21	=21	=21	=21	=21	=21	=21	=21	=21	=21	=21	=21
!	!	!	!	!	!	!LO:TX:b:t=|	!LO:DY:t=piano	!LO:TX:a:t=|	!	!LO:TX:a:t=4.	!	!LO:TX:a:t=4.	!
4GG/	p	4GG/	p	4G/	p	4g/	p	4G\	E-	0r	.	0r	.
!	!	!	!	!	!	!LO:TX:b:t=|	!	!LO:TX:a:t=|	!	!	!	!	!
4BB/	.	4BB/	.	4B/	.	4b/	.	4B\	.	.	.	.	.
=22	=22	=22	=22	=22	=22	=22	=22	=22	=22	=22	=22	=22	=22
!	!	!	!	!	!	!LO:TX:a:t=|	!	!LO:TX:a:t=|	!	!	!	!	!
4D/	.	4D/	.	4d/	.	4dd\	.	4d\	-ja	.	.	.	.
8r	.	8r	.	8r	.	8r	.	8r	.	.	.	.	.
8D/	.	8D/	.	24d/LL	.	24dd\LL	.	8d\	Con-	.	.	.	.
.	.	.	.	24e/	.	24ee\	.	.	.	.	.	.	.
.	.	.	.	24f#/JJ	.	24ff#\JJ	.	.	.	.	.	.	.
=23	=23	=23	=23	=23	=23	=23	=23	=23	=23	=23	=23	=23	=23
!	!	!LO:TX:a:t=|	!	!	!	!LO:TX:a:t=|	!	!LO:TX:a:t=|	!	!	!	!	!
8G\L	.	8G\L	.	8g/L	.	8gg\L	.	8g\	.	.	.	.	.
!	!	!LO:TX:a:t=|	!	!	!	!LO:TX:a:t=|	!	!LO:TX:a:t=|	!	!	!	!	!
8D\	.	8D\	.	8d/	.	8dd\	.	8d\	-so-	.	.	.	.
!	!	!LO:TX:a:t=|	!	!	!	!LO:TX:a:t=|	!	!LO:TX:a:t=|	!	!	!	!	!
8BB\	.	8BB\	.	8B/	.	8b\	.	8B\	-na-	.	.	.	.
!	!	!LO:TX:a:t=|	!	!	!	!LO:TX:a:t=|	!	!LO:TX:a:t=|	!	!	!	!	!
8D\J	.	8D\J	.	8d/J	.	8dd\J	.	8d\	.	.	.	.	.
!LO:LB:g=original	!	!	!	!	!	!	!	!	!	!	!	!	!
=24	=24	=24	=24	=24	=24	=24	=24	=24	=24	=24	=24	=24	=24
!LO:TX:t=P:problem=mixed beam	!	!LO:TX:t=P:problem=mixed beam	!	!LO:TX:t=P:problem=mixed beam	!	!	!	!	!	!	!	!	!
16GG/LL	f	16GG/LL	f	16G/LL	f	4G/ 4d/ 4b/ 4gg/	f	4G\	-te	.	.	.	.
16G\	.	16G\	.	16b\	.	.	.	.	.	.	.	.	.
16F#\	.	16F#\	.	16a\	.	.	.	.	.	.	.	.	.
16E\JJ	.	16E\JJ	.	16g\JJ	.	.	.	.	.	.	.	.	.
16D\LL	.	16D\LL	.	16f#/LL	.	4r	.	4r	.	.	.	.	.
16C\	.	16C\	.	16e/	.	.	.	.	.	.	.	.	.
16BB\	.	16BB\	.	16d/	.	.	.	.	.	.	.	.	.
16AA\JJ	.	16AA\JJ	.	16cc/JJ	.	.	.	.	.	.	.	.	.
=25	=25	=25	=25	=25	=25	=25	=25	=25	=25	=25	=25	=25	=25
!	!LO:DY:t=pia&colon;	!	!	!	!	!	!	!	!	!	!	!	!
8GG/L	p	8GG/L	p	(16dd\LL	p	(16bb\LL	p	4G\	lae-	4G/	.	4G/	.
.	.	.	.	16cc\)	.	16aa\)	.	.	.	.	.	.	.
8GG/J	.	8GG/J	.	(16cc\	.	(16aa\	.	.	.	.	.	.	.
.	.	.	.	16b\JJ)	.	16gg\JJ)	.	.	.	.	.	.	.
!	!	!	!	!	!	!LO:LB:g=original	!	!	!	!	!	!	!
!LO:TX:t=P:problem=mixed beam	!	!LO:TX:t=P:problem=mixed beam	!	!	!	!	!	!	!	!	!	!	!
16GG/LL	.	16GG/LL	.	4eeT\	.	4cccT\	.	4G\	-ti	4r	.	4r	.
16G\	.	16G\	.	.	.	.	.	.	.	.	.	.	.
16F#\	.	16F#\	.	.	.	.	.	.	.	.	.	.	.
16G\JJ	.	16G\JJ	.	.	.	.	.	.	.	.	.	.	.
=26	=26	=26	=26	=26	=26	=26	=26	=26	=26	=26	=26	=26	=26
*	*	*	*	*	*	*	*	*2\right	*	*	*	*	*
8GG/L	.	8GG/L	.	(16dd\LL	.	(16bb\LL	.	2GT\	Con-	4G/	.	4G/	.
.	.	.	.	16cc\)	.	16aa\)	.	.	.	.	.	.	.
8GG/J	.	8GG/J	.	(16cc\	.	(16aa\	.	.	.	.	.	.	.
.	.	.	.	16b\JJ)	.	16gg\JJ)	.	.	.	.	.	.	.
!LO:TX:t=P:problem=mixed beam	!	!LO:TX:t=P:problem=mixed beam	!	!	!	!	!	!	!	!	!	!	!
16GG/LL	.	16GG/LL	.	4bt\	.	4ggT\	.	.	.	4r	.	4r	.
16G\	.	16G\	.	.	.	.	.	.	.	.	.	.	.
16F#\	.	16F#\	.	.	.	.	.	.	.	.	.	.	.
16G\JJ	.	16G\JJ	.	.	.	.	.	.	.	.	.	.	.
=27	=27	=27	=27	=27	=27	=27	=27	=27	=27	=27	=27	=27	=27
8GG/L	.	8GG/L	.	(16d/LL	.	(16b/LL	.	4G\	.	4G/	.	4G/	.
.	.	.	.	16c/)	.	16a/)	.	.	.	.	.	.	.
8GG/J	.	8GG/J	.	(16c/	.	(16a/	.	.	.	.	.	.	.
.	.	.	.	16B/JJ)	.	16g/JJ)	.	.	.	.	.	.	.
!LO:TX:t=P:problem=mixed beam	!	!LO:TX:t=P:problem=mixed beam	!	!	!	!	!	!	!	!	!	!	!
16GG/LL	.	16GG/LL	.	4eT/	.	4ccT\	.	4G\	-so-	4r	.	4r	.
16G\	.	16G\	.	.	.	.	.	.	.	.	.	.	.
16F#\	.	16F#\	.	.	.	.	.	.	.	.	.	.	.
16G\JJ	.	16G\JJ	.	.	.	.	.	.	.	.	.	.	.
!	!	!LO:LB:g=original	!	!	!	!	!	!LO:LB:g=original	!	!	!	!	!
=28	=28	=28	=28	=28	=28	=28	=28	=28	=28	=28	=28	=28	=28
8GG/L	.	8GG/L	.	(16d/LL	.	(16b/LL	.	8.GT\	-na-	4G/	.	4G/	.
.	.	.	.	16c/)	.	16a/)	.	.	.	.	.	.	.
8GG/J	.	8GG/J	.	(16c/	.	(16a/	.	.	.	.	.	.	.
.	.	.	.	16B/JJ)	.	16g/JJ)	.	16G\	.	.	.	.	.
!LO:TX:t=P:problem=mixed beam	!	!	!	!	!	!LO:TX:a:t=|	!LO:DY:t=f&colon;	!	!	!	!	!	!
16GG/LL	f	16G\LL	f	16B/LL	f	16g\LL	f	4G\	-te	4r	.	4r	.
!	!	!	!	!	!	!LO:TX:a:t=|	!	!	!	!	!	!	!
16G\	.	16D\	.	16d/	.	16b\	.	.	.	.	.	.	.
!	!	!	!	!	!	!LO:TX:a:t=|	!	!	!	!	!	!	!
16F#\	.	16BB\	.	16g/	.	16dd\	.	.	.	.	.	.	.
!	!	!	!	!	!	!LO:TX:a:t=|	!	!	!	!	!	!	!
16G\JJ	.	16D\JJ	.	16b/JJ	.	16gg\JJ	.	.	.	.	.	.	.
=29	=29	=29	=29	=29	=29	=29	=29	=29	=29	=29	=29	=29	=29
*	*	*	*	*	*	*	*	*	*	*2\right	*	*	*
!LO:TX:t=P:problem=mixed beam	!	!LO:TX:t=P:problem=mixed beam	!	!	!	!	!	!	!	!	!LO:DY:t=pianiſs&colon;	!	!LO:DY:t=pianiſs&colon;
8GG/L	p	8GG/L	p	8dd\L	p	16bb\LL	p	2Bt\	Lau-	2g\	pp	2b\	pp
.	.	.	.	.	.	16gg\	.	.	.	.	.	.	.
8G\	.	8G\	.	8dd\J	.	16dd\	.	.	.	.	.	.	.
.	.	.	.	.	.	16b\JJ	.	.	.	.	.	.	.
!	!	!	!	!	!	!LO:TX:t=P:problem=mixed beam	!	!	!	!	!	!	!
8G\	.	8G\	.	16dd\LL	.	8g/L	.	.	.	.	.	.	.
.	.	.	.	16b\	.	.	.	.	.	.	.	.	.
8G\J	.	8G\J	.	16g\	.	8bb\J	.	.	.	.	.	.	.
.	.	.	.	16d\JJ	.	.	.	.	.	.	.	.	.
!LO:LB:g=original	!	!	!	!	!	!	!	!	!	!	!	!	!
=30	=30	=30	=30	=30	=30	=30	=30	=30	=30	=30	=30	=30	=30
8F#\L	.	8F#\L	.	8dd\L	.	16aa\LL	.	2AT\	-des	2d/	.	2a\	.
.	.	.	.	.	.	16ff#\	.	.	.	.	.	.	.
8F#\	.	8F#\	.	8dd\J	.	16dd\	.	.	.	.	.	.	.
.	.	.	.	.	.	16a\JJ	.	.	.	.	.	.	.
!	!	!	!	!	!	!LO:TX:t=P:problem=mixed beam	!	!	!	!	!	!	!
8F#\	.	8F#\	.	16dd\LL	.	8f#/L	.	.	.	.	.	.	.
.	.	.	.	16b\	.	.	.	.	.	.	.	.	.
8F#\J	.	8F#\J	.	16g\	.	8aa\J	.	.	.	.	.	.	.
.	.	.	.	16d\JJ	.	.	.	.	.	.	.	.	.
=31	=31	=31	=31	=31	=31	=31	=31	=31	=31	=31	=31	=31	=31
8E\L	.	8E\L	.	8b\L	.	(4gg\	.	4G\	Vir-	4g\	.	8b\L	.
8E\	.	8E\	.	8cc#X\J	.	.	.	.	.	.	.	8cc#X\J	.
8D\	.	8D\	.	8dd\L	.	8ff#\L)	.	8F#\	-gi-	4d/	.	[4dd\	.
8D\J	.	8D\J	.	16ff#\L	.	16aa\L	.	(16A\LL	-nis	.	.	.	.
.	.	.	.	16ee\JJ	.	16gg\JJ	.	16G\JJ)	.	.	.	.	.
=32	=32	=32	=32	=32	=32	=32	=32	=32	=32	=32	=32	=32	=32
!LO:TX:t=P:problem=mixed beam	!	!LO:TX:t=P:problem=mixed beam	!	!	!	!	!	!	!	!	!	!	!
8AA/L	.	8AA/L	.	8dd\L	.	8ff#t\L	.	8F#\	Al-	4a\	.	8dd\L]	.
8A\J	.	8A\J	.	8cc#X\J	.	8ee\J	.	8E\	-mae	.	.	8cc#X\J	.
!	!	!	!	!LO:LB:g=original	!	!	!	!	!	!	!	!	!
8AA/	.	8AA/	.	8cc#\	f	8r	.	4r	.	4r	.	4r	.
!	!	!	!	!	!	!	!LO:DY:t=forte	!	!	!	!	!	!
8r	.	8r	.	8r	.	(32a/LLL	f	.	.	.	.	.	.
.	.	.	.	.	.	32b/	.	.	.	.	.	.	.
.	.	.	.	.	.	32cc#X/	.	.	.	.	.	.	.
.	.	.	.	.	.	32dd/JJJ)	.	.	.	.	.	.	.
!	!	!	!	!	!	!LO:LB:g=original	!	!	!	!	!	!LO:LB:g=original	!
=33	=33	=33	=33	=33	=33	=33	=33	=33	=33	=33	=33	=33	=33
!	!	!	!	!	!	!	!LO:DY:t=piano	!	!	!	!	!	!
8AA/L	.	8AA/L	.	16cc#X\LL	p	(16ee\LL	p	2A\	Lae-	4a\	.	4a\	.
.	.	.	.	16dd\	.	16ff#\)	.	.	.	.	.	.	.
8AA/	.	8AA/	.	16dd\	.	(16ff#\	.	.	.	.	.	.	.
.	.	.	.	16ee\JJ	.	16gg\JJ)	.	.	.	.	.	.	.
8AA/	.	8AA/	.	4eeT\	.	4ggT\	.	.	.	4r	.	4r	.
8AA/J	.	8AA/J	.	.	.	.	.	.	.	.	.	.	.
!	!	!	!	!	!	!	!	!	!	!LO:LB:g=original	!	!	!
=34	=34	=34	=34	=34	=34	=34	=34	=34	=34	=34	=34	=34	=34
8AA/L	.	8AA/L	.	16dd\LL	.	(16ff#\LL	.	2A\	-ti	4a\	.	4a\	.
.	.	.	.	16ee\	.	16gg\)	.	.	.	.	.	.	.
8AA/	.	8AA/	.	16ee\	.	(16gg\	.	.	.	.	.	.	.
.	.	.	.	16ff#\JJ	.	16aa\JJ)	.	.	.	.	.	.	.
8AA/	.	8AA/	.	4ff#t\	.	4aaT\	.	.	.	4r	.	4r	.
8AA/J	.	8AA/J	.	.	.	.	.	.	.	.	.	.	.
=35	=35	=35	=35	=35	=35	=35	=35	=35	=35	=35	=35	=35	=35
8AA/L	.	8AA/L	.	(16e/LL	.	(16cc#X\LL	.	4A\	Con-	4a\	.	4a\	.
.	.	.	.	16f#/)	.	16dd\)	.	.	.	.	.	.	.
8AA/	.	8AA/	.	(16f#/	.	(16dd\	.	.	.	.	.	.	.
.	.	.	.	16g/JJ)	.	16ee\JJ)	.	.	.	.	.	.	.
8AA/	.	8AA/	.	4gT/	.	4eeT\	.	4A\	-so-	4r	.	4r	.
8AA/J	.	8AA/J	.	.	.	.	.	.	.	.	.	.	.
=36	=36	=36	=36	=36	=36	=36	=36	=36	=36	=36	=36	=36	=36
8AA/L	.	8AA/L	.	(16f#/LL	.	(16dd\LL	.	8.A\	-na-	4a\	.	4a\	.
.	.	.	.	16g/)	.	16ee\)	.	.	.	.	.	.	.
8AA/	.	8AA/	.	(16g/	.	(16ee\	.	.	.	.	.	.	.
.	.	.	.	16a/JJ)	.	16ff#\JJ)	.	16A\	.	.	.	.	.
8AA/	.	8AA/	.	4aT/	.	4ff#t\	.	4A\	-te	4r	.	4r	.
8AA/J	.	8AA/J	.	.	.	.	.	.	.	.	.	.	.
!	!	!	!	!	!	!	!	!LO:LB:g=original	!	!	!	!	!
=37	=37	=37	=37	=37	=37	=37	=37	=37	=37	=37	=37	=37	=37
8AA/L	.	8AA/L	.	16cc#X\LL	.	(16ee\LL	.	2AT\	Lau-	4a\	.	4a\	.
.	.	.	.	16dd\	.	16ff#\)	.	.	.	.	.	.	.
8AA/	.	8AA/	.	16dd\	.	(16ff#\	.	.	.	.	.	.	.
.	.	.	.	16ee\JJ	.	16gg\JJ)	.	.	.	.	.	.	.
8AA/	.	8AA/	.	4eeT\	.	4ggT\	.	.	.	4r	.	4r	.
8AA/J	.	8AA/J	.	.	.	.	.	.	.	.	.	.	.
=38	=38	=38	=38	=38!|:	=38	=38!|:	=38	=38	=38	=38	=38	=38	=38
8D\L	.	8D/L	.	(32dd\LLL	.	(32ff#\LLL	.	(32F#\LLL	.	4d/	.	4a\	.
.	.	.	.	32ee\JJ	.	32ee\JJ	.	32E\JJ	.	.	.	.	.
.	.	.	.	8.ff#\J)	.	8.dd\J)	.	8.D\J)	.	.	.	.	.
8D/	.	8D/	.	.	.	.	.	.	.	.	.	.	.
8D\	.	8D/	.	(32aa\LLL	.	(32bb\LLL	.	(32B\LLL	.	4r	.	4r	.
.	.	.	.	32ff#\JJ	.	32aa\JJ	.	32A\JJ	.	.	.	.	.
.	.	.	.	8.ee\J)	.	8.gg\J)	.	8.G\J)	.	.	.	.	.
8D\J	.	8D/J	.	.	.	.	.	.	.	.	.	.	.
=39	=39	=39	=39	=39	=39	=39	=39	=39	=39	=39	=39	=39	=39
!	!	!	!	!	!	!	!	!	!	!LO:TX:a:t=1	!	!LO:TX:a:t=1	!
8D\L	.	8D/L	.	(32ff#\LLL	.	(32aa\LLL	.	(32A\LLL	.	2r	.	2r	.
.	.	.	.	32ee\JJ	.	32gg\JJ	.	32G\JJ	.	.	.	.	.
.	.	.	.	8.dd\J)	.	8.ff#\J)	.	8.F#\J)	.	.	.	.	.
8D\	.	8D/	.	.	.	.	.	.	.	.	.	.	.
8D\	.	8D/	.	(32ee\LLL	.	(32gg\LLL	.	(32G\LLL	.	.	.	.	.
.	.	.	.	32dd\JJ	.	32ff#\JJ	.	32F#\JJ	.	.	.	.	.
.	.	.	.	8.cc#X\J)	.	8.ee\J)	.	8.E\J)	.	.	.	.	.
8D\J	.	8D/J	.	.	.	.	.	.	.	.	.	.	.
!	!	!LO:LB:g=original	!	!	!	!	!	!	!	!	!	!	!
=40	=40	=40	=40	=40:|!	=40	=40:|!	=40	=40	=40	=40	=40	=40	=40
!	!	!	!	!LO:TX:t=P:problem=takty 40-41 zapisane repetycją	!	!LO:TX:t=P:problem=takty 40-41 zapisane repetycją	!	!	!	!	!	!	!
8D\L	.	8D/L	.	(yy32dd\LLLyy	.	(yy32ff#\LLLyy	.	(32F#\LLL	.	4d/	.	4a\	.
.	.	.	.	32ee\JJyy	.	32ee\JJyy	.	32E\JJ	.	.	.	.	.
.	.	.	.	8.ff#\J)yy	.	8.dd\J)yy	.	8.D\J)	.	.	.	.	.
8D\	.	8D/	.	.	.	.	.	.	.	.	.	.	.
8D\	.	8D/	.	(yy32aa\LLLyy	.	(yy32bb\LLLyy	.	(32B\LLL	.	4r	.	4r	.
.	.	.	.	32ff#\JJyy	.	32aa\JJyy	.	32A\JJ	.	.	.	.	.
.	.	.	.	8.ee\J)yy	.	8.gg\J)yy	.	8.G\J)	.	.	.	.	.
8D\J	.	8D/J	.	.	.	.	.	.	.	.	.	.	.
!LO:LB;g=original	!	!	!	!	!	!	!	!	!	!	!	!	!
=41	=41	=41	=41	=41	=41	=41	=41	=41	=41	=41	=41	=41	=41
!	!	!	!	!	!	!	!	!	!	!LO:TX:a:t=1	!	!LO:TX:a:t=1	!
8D\L	.	8D/L	.	(yy32ff#\LLLyy	.	(yy32aa\LLLyy	.	(32A\LLL	.	2r	.	2r	.
.	.	.	.	32ee\JJyy	.	32gg\JJyy	.	32G\JJ	.	.	.	.	.
.	.	.	.	8.dd\J)yy	.	8.ff#\J)yy	.	8.F#\J)	.	.	.	.	.
8D\	.	8D/	.	.	.	.	.	.	.	.	.	.	.
8D\	.	8D/	.	(yy32ee\LLLyy	.	(yy32gg\LLLyy	.	(32G\LLL	.	.	.	.	.
.	.	.	.	32dd\JJyy	.	32ff#\JJyy	.	32F#\JJ	.	.	.	.	.
.	.	.	.	8.cc#X\J)yy	.	8.ee\J)yy	.	8.E\J)	.	.	.	.	.
8D\J	.	8D/J	.	.	.	.	.	.	.	.	.	.	.
=42	=42	=42	=42	=42	=42	=42	=42	=42	=42	=42	=42	=42	=42
4D/	f	4D/	f	4d/ 4a/ 4ff#/	.	4d/ 4a/ 4ff#/	.	16F#\LL	.	4d/	.	4a\	.
.	.	.	.	.	.	.	.	16A\	.	.	.	.	.
.	.	.	.	.	.	.	.	16G\	.	.	.	.	.
.	.	.	.	.	.	.	.	16F#\JJ	.	.	.	.	.
4r	.	4r	.	4r	.	4r	.	16G\LL	.	4r	.	4r	.
.	.	.	.	.	.	.	.	16A\	.	.	.	.	.
.	.	.	.	.	.	.	.	16B\	.	.	.	.	.
!	!	!	!	!	!	!	!	!LO:TX:a:t=P:problem=# above	!	!	!	!	!
.	.	.	.	.	.	.	.	16c#X\JJ	.	.	.	.	.
!	!	!	!	!	!	!	!	!LO:LB:g=original	!	!	!	!	!
=43	=43	=43	=43	=43	=43	=43	=43	=43	=43	=43	=43	=43	=43
!	!	!	!	!	!	!	!LO:DY:t=mezzo for&colon;	!	!	!LO:TX:a:t=2	!	!LO:TX:a:t=2	!
8r	.	8r	.	8r	.	8r	mf	8d\	-des	1r	.	1r	.
!LO:TX:a:t=|	!	!LO:TX:a:t=|	!	!LO:TX:b:t=|	!	!LO:TX:a:t=|	!	!	!	!	!	!	!
8A\L	mf	8A\L	mf	8a/L	.	8aa\L	.	(8A\	de-	.	.	.	.
!LO:TX:a:t=|	!	!LO:TX:a:t=|	!	!LO:TX:b:t=|	!	!LO:TX:a:t=|	!	!	!	!	!	!	!
8F#\	.	8F#\	.	8f#/	.	8ff#\	.	8F#\)	.	.	.	.	.
!LO:TX:a:t=|	!	!LO:TX:a:t=|	!	!LO:TX:b:t=|	!	!LO:TX:a:t=|	!	!	!	!	!	!	!
8C#X\J	.	8C#X\J	.	8c#X/J	.	8cc#X\J	.	8C#X/	-can-	.	.	.	.
!	!	!	!	!LO:LB:g=original	!	!	!	!	!	!	!	!	!
=44	=44	=44	=44	=44	=44	=44	=44	=44	=44	=44	=44	=44	=44
!	!	!	!	!LO:TX:b:t=|	!	!	!	!	!	!	!	!	!
8D\L	.	8D\L	.	8d/L	.	8dd/L	.	8D/	-ta-	.	.	.	.
!	!	!	!	!LO:TX:b:t=|	!	!LO:TX:b:t=|	!	!	!	!	!	!	!
8F#\	.	8F#\	.	8f#/	.	8f#/	.	8F#\L	.	.	.	.	.
!	!	!	!	!LO:TX:b:t=|	!	!LO:TX:b:t=|	!	!	!	!	!	!	!
8G\	.	8G\	.	8g/	.	8g/	.	8G\J	.	.	.	.	.
!	!	!	!	!LO:TX:b:t=|	!	!LO:TX:b:t=|	!	!	!	!	!	!	!
8A\J	.	8A\J	.	8a/J	.	8a/J	.	8A\	.	.	.	.	.
!	!	!	!	!	!	!LO:LB:g=original	!	!	!	!	!	!LO:LB:g=original	!
=45	=45	=45	=45	=45	=45	=45	=45	=45	=45	=45	=45	=45	=45
!	!	!	!	!	!	!	!LO:DY:t=fortiſs	!	!	!	!	!	!
8D\L	f	8D\L	f	(16a/LL	f	(16ff#\LL	ff	4D/	-te	[2d/	.	[2d/	.
.	.	.	.	16g/)	.	16ee\)	.	.	.	.	.	.	.
8D\J	.	8D\J	.	(16g/	.	(16ee\	.	.	.	.	.	.	.
.	.	.	.	16f#/JJ)	.	16dd\JJ)	.	.	.	.	.	.	.
16D\LL	.	16D\LL	.	4bt/	.	4ggT\	.	4r	.	.	.	.	.
16d\	.	16d\	.	.	.	.	.	.	.	.	.	.	.
16c#X\	.	16c#X\	.	.	.	.	.	.	.	.	.	.	.
16d\JJ	.	16d\JJ	.	.	.	.	.	.	.	.	.	.	.
=46	=46	=46	=46	=46	=46	=46	=46	=46	=46	=46	=46	=46	=46
!	!	!	!	!	!	!	!	!LO:TX:a:t=7.	!	!	!	!	!
8D\L	.	8D\L	.	(16a/LL	.	(16ff#\LL	.	0r	.	2d/]	.	2d/]	.
.	.	.	.	16g/)	.	16ee\)	.	.	.	.	.	.	.
8D\J	.	8D\J	.	(16g/	.	(16ee\	.	.	.	.	.	.	.
.	.	.	.	16f#/JJ)	.	16dd\JJ)	.	.	.	.	.	.	.
16D\LL	.	16D\LL	.	4f#t/	.	4ddT\	.	.	.	.	.	.	.
16d\	.	16d\	.	.	.	.	.	.	.	.	.	.	.
16c#X\	.	16c#X\	.	.	.	.	.	.	.	.	.	.	.
16d\JJ	.	16d\JJ	.	.	.	.	.	.	.	.	.	.	.
=47	=47	=47	=47	=47	=47	=47	=47	=47	=47	=47	=47	=47	=47
8D\L	.	8D\L	.	(16a/LL	p	(16ff#\LL	p	.	.	2d/	.	2d/	.
.	.	.	.	16g/)	.	16ee\)	.	.	.	.	.	.	.
8D\J	.	8D\J	.	(16g/	.	(16ee\	.	.	.	.	.	.	.
.	.	.	.	16f#/JJ)	.	16dd\JJ)	.	.	.	.	.	.	.
16D\LL	.	16D\LL	.	4bt/	.	4ggT\	.	.	.	.	.	.	.
16d\	.	16d\	.	.	.	.	.	.	.	.	.	.	.
16c#X\	.	16c#X\	.	.	.	.	.	.	.	.	.	.	.
16d\JJ	.	16d\JJ	.	.	.	.	.	.	.	.	.	.	.
!	!	!	!	!	!	!	!	!	!	!LO:LB:g=original	!	!	!
=48	=48	=48	=48	=48	=48	=48	=48	=48	=48	=48	=48	=48	=48
8D\L	.	8D\L	.	(16a/LL	.	(16ff#\LL	.	.	.	4d/	.	4d/	.
.	.	.	.	16g/)	.	16ee\)	.	.	.	.	.	.	.
8d\J	.	8d\J	.	(16g/	.	(16ee\	.	.	.	.	.	.	.
.	.	.	.	16f#/JJ)	.	16dd\JJ)	.	.	.	.	.	.	.
8D\L	.	8D\L	.	8f#/L	f	8dd\L	f	.	.	4r	.	4r	.
8D\J	.	8D\J	.	8f#/J	.	(32bb\KL	.	.	.	.	.	.	.
.	.	.	.	.	.	16.gg#X\JJ)	.	.	.	.	.	.	.
!LO:LB:g=original	!	!	!	!	!	!	!	!	!	!	!	!	!
=49	=49	=49	=49	=49	=49	=49	=49	=49	=49	=49	=49	=49	=49
!	!	!	!	!	!	!LO:TX:a:t=|	!	!	!	!LO:TX:a:t=1	!	!LO:TX:a:t=1	!
8C#X/L	.	8C#X/L	.	8e/L	.	8aa\L	.	.	.	2r	.	2r	.
8D/	.	8D/	.	8f#/	.	(32bb\KL	.	.	.	.	.	.	.
.	.	.	.	.	.	16.gg#X\JJ)	.	.	.	.	.	.	.
!	!	!	!	!	!	!LO:TX:a:t=|	!	!	!	!	!	!	!
8C#/	.	8C#/	.	8e/	.	8aa\L	.	.	.	.	.	.	.
8D/J	.	8D/J	.	8f#/J	.	(32bb\KL	.	.	.	.	.	.	.
.	.	.	.	.	.	16.gg#\JJ)	.	.	.	.	.	.	.
=50	=50	=50	=50	=50	=50	=50	=50	=50	=50	=50	=50	=50	=50
8C#X/L	.	8C#X/L	.	16e/LL	.	(16a\LL	.	1r	.	2a\	.	2cc#X\	.
.	.	.	.	16a/	.	16cc#X\	.	.	.	.	.	.	.
8AA/	.	8AA/	.	16cc#X/	.	16ee\)	.	.	.	.	.	.	.
!	!	!	!	!	!	!LO:TX:a:t=|	!	!	!	!	!	!	!
.	.	.	.	16ee/JJ	.	16ggn\JJ	.	.	.	.	.	.	.
!	!	!	!	!	!	!LO:TX:a:t=|	!	!	!	!	!	!	!
8AA/	.	8AA/	.	16gg\LL	.	16bb\LL	.	.	.	.	.	.	.
.	.	.	.	16ee\	.	(16gg\	.	.	.	.	.	.	.
8AA/J	.	8AA/J	.	16dd\	.	16ff#\	.	.	.	.	.	.	.
.	.	.	.	16cc#X\JJ	.	16ee\JJ)	.	.	.	.	.	.	.
!	!	!LO:LB:g=original	!	!	!	!	!	!	!	!	!	!	!
=51	=51	=51	=51	=51	=51	=51	=51	=51	=51	=51	=51	=51	=51
8D\L	.	8D\L	.	8dd\L	.	(16ff#\LL	.	.	.	4a\	.	4dd\	.
.	.	.	.	.	.	16aa\)	.	.	.	.	.	.	.
!	!	!	!	!	!	!LO:TX:a:t=|	!	!	!	!	!	!	!
8F#\	.	8F#\	.	8a\J	.	(16dd\	.	.	.	.	.	.	.
!	!	!	!	!	!	!LO:TX:a:t=|	!	!	!	!	!	!	!
.	.	.	.	.	.	16ff#\JJ)	.	.	.	.	.	.	.
8G\	.	8G\	.	(16g/LL	.	(16ee\LL	.	.	.	8b\L	.	8dd\L	.
.	.	.	.	16b/)	.	16gg\)	.	.	.	.	.	.	.
!	!	!	!	!LO:TX:b:t=|	!	!LO:TX:a:t=|	!	!	!	!	!	!	!
8A\J	.	8A\J	.	16e/	.	(16cc#X\	.	.	.	8a\J	.	8cc#X\J	.
!	!	!	!	!LO:TX:b:t=|	!	!LO:TX:a:t=|	!	!	!	!	!	!	!
.	.	.	.	16g/JJ	.	16ee\JJ)	.	.	.	.	.	.	.
=52	=52	=52	=52	=52	=52	=52	=52	=52	=52	=52	=52	=52	=52
!	!	!	!	!	!	!LO:TX:a:t=|	!	!	!	!	!	!	!
4D\	.	4D\	.	8f#/L	.	8dd\L	.	2r	.	8a\L	.	8dd\L	.
!	!	!	!	!	!	!LO:TX:a:t=|	!	!	!	!	!	!	!
.	.	.	.	8a/J	.	8a\J	.	.	.	16d\L	.	16a\L	.
.	.	.	.	.	.	.	.	.	.	16d\JJ	.	16a\JJ	.
16r	.	16r	.	8d/ 8a/ 8gg/	.	8d/ 8a/ 8ff#/	.	.	.	8d/	.	8a\	.
16D\LL	.	16D\LL	.	.	.	.	.	.	.	.	.	.	.
16F#\	.	16F#\	.	8r	.	8r	.	.	.	8r	.	8r	.
16A\JJ	.	16A\JJ	.	.	.	.	.	.	.	.	.	.	.
!	!	!	!	!	!	!LO:LB:g=original	!	!	!	!	!	!	!
=53	=53	=53	=53	=53	=53	=53	=53	=53	=53	=53	=53	=53	=53
!	!	!LO:TX:a:t=|	!	!LO:TX:a:t=|	!	!LO:TX:a:t=|	!	!	!	!LO:TX:a:t=8.	!	!LO:TX:a:t=8.	!
4d\	.	4d\	.	4dd\	p	4dd\	p	4d\	E-	0r	.	0r	.
!	!	!LO:TX:a:t=|	!	!LO:TX:a:t=|	!	!LO:TX:a:t=|	!	!	!	!	!	!	!
4B\	.	4B\	.	4b\	.	4b\	.	4B\	.	.	.	.	.
=54	=54	=54	=54	=54	=54	=54	=54	=54	=54	=54	=54	=54	=54
.	.	.	.	.	.	.	.	8qqA/	.	.	.	.	.
4G#X\	.	4G#X\	.	4g#X/	.	4g#X/	.	4G#X\	-ja	.	.	.	.
8r	.	8r	.	8r	.	8r	.	8r	.	.	.	.	.
8GG#X/	.	8GG#X/	.	8dd\	.	8ffn\	.	8fn\	Con-	.	.	.	.
!	!	!	!	!LO:LB:g=original	!	!	!	!	!	!	!	!	!
=55	=55	=55	=55	=55	=55	=55	=55	=55	=55	=55	=55	=55	=55
!LO:TX:t=P:problem=mixed beam	!	!LO:TX:t=P:problem=mixed beam	!	!LO:TX:a:t=|	!	!LO:TX:a:t=|	!	!	!	!	!	!	!
8AA\L	.	8AA\L	.	8cc\L	.	8ee\L	.	8e\	.	.	.	.	.
!	!	!	!	!LO:TX:a:t=|	!	!LO:TX:a:t=|	!	!	!	!	!	!	!
8D\	.	8D\	.	8b\	.	8dd\	.	8d\	.	.	.	.	.
!	!	!	!	!LO:TX:a:t=|	!	!LO:TX:a:t=|	!	!	!	!	!	!	!
8E\	.	8E\	.	8a\	.	8cc\	.	8c\	.	.	.	.	.
!	!	!	!	!LO:TX:a:t=|	!	!LO:TX:a:t=|	!	!	!	!	!	!	!
8EE/J	.	8EE/J	.	8g#X\J	.	8b\J	.	8B\	-so-	.	.	.	.
!	!	!	!	!	!	!	!	!LO:LB:g=original	!	!	!	!	!
=56	=56	=56	=56	=56	=56	=56	=56	=56	=56	=56	=56	=56	=56
!	!	!	!	!	!	!	!LO:DY:t=f&colon;	!	!	!	!	!	!
8AA/L	f	8AA/L	f	16r	.	16r	f	8A\	-na-	.	.	.	.
.	.	.	.	16A/LL	.	16A/LL	.	.	.	.	.	.	.
8C/J	.	8C/J	.	16c/	.	16c/	.	8E\	-te	.	.	.	.
.	.	.	.	16e/JJ	.	16e/JJ	.	.	.	.	.	.	.
8E\L	.	8E\L	.	16a/LL	.	16a/LL	.	4r	.	.	.	.	.
.	.	.	.	16c/	.	16c/	.	.	.	.	.	.	.
8A\J	.	8A\J	.	16e/	.	16e/	.	.	.	.	.	.	.
.	.	.	.	16a/JJ	.	16a/JJ	.	.	.	.	.	.	.
!LO:LB:g=original	!	!	!	!	!	!	!	!	!	!	!	!	!
=57	=57	=57	=57	=57	=57	=57	=57	=57	=57	=57	=57	=57	=57
!	!	!LO:TX:a:t=|	!	!LO:TX:a:t=|	!	!LO:TX:a:t=|	!	!	!	!	!	!	!
4c\	p	4c\	p	4cc\	p	4cc\	p	4c\	Ma-	0r	.	0r	.
!	!	!LO:TX:a:t=|	!	!LO:TX:a:t=|	!	!LO:TX:a:t=|	!	!	!	!	!	!	!
4A\	.	4A\	.	4a\	.	4a\	.	4A\	.	.	.	.	.
=58	=58	=58	=58	=58	=58	=58	=58	=58	=58	=58	=58	=58	=58
.	.	.	.	8qqg/	.	8qqg/	.	8qqG/	.	.	.	.	.
4F#\	.	4F#\	.	4f#/	.	4f#/	.	4F#X\	-tris	.	.	.	.
8r	.	8r	.	8r	.	8r	.	8r	.	.	.	.	.
!	!	!	!	!	!	!LO:TX:a:t=|	!	!	!	!	!	!	!
8F#\	.	8F#\	.	8cc\	.	8ee\	.	(8e\	Lau-	.	.	.	.
=59	=59	=59	=59	=59	=59	=59	=59	=59	=59	=59	=59	=59	=59
!LO:TX:t=P:problem=mixed beam	!	!LO:TX:t=P:problem=mixed beam	!	!	!	!LO:TX:a:t=|	!	!	!	!	!	!	!
8G\L	.	8G\L	.	8b/L	.	8dd\L	.	8d\)	.	.	.	.	.
!	!	!	!	!	!	!LO:TX:a:t=|	!	!	!	!	!	!	!
8C\	.	8C\	.	8a/	.	8cc\	.	8c\	-des	.	.	.	.
!	!	!	!	!	!	!LO:TX:a:t=|	!	!	!	!	!	!	!
8D\	.	8D\	.	8g/	.	8b\	.	8B\	de-	.	.	.	.
!	!	!	!	!	!	!LO:TX:a:t=|	!	!	!	!	!	!	!
8DD/J	.	8DD/J	.	8f#/J	.	8a\J	.	8A\	-can-	.	.	.	.
=60	=60	=60	=60	=60	=60	=60	=60	=60	=60	=60	=60	=60	=60
4GG/	f	4GG/	f	16g/LL	f	16g/LL	.	8G\	-ta-	.	.	.	.
.	.	.	.	16B/	.	16d/	.	.	.	.	.	.	.
.	.	.	.	16c/	.	16e/	.	8D\	-te	.	.	.	.
.	.	.	.	16d/JJ	.	16f#/JJ	.	.	.	.	.	.	.
4r	.	4r	.	16e/LL	.	16g/LL	.	4r	.	.	.	.	.
.	.	.	.	16f#/	.	16a/	.	.	.	.	.	.	.
.	.	.	.	16g/	.	16b/	.	.	.	.	.	.	.
.	.	.	.	16a/JJ	.	16cc/JJ	.	.	.	.	.	.	.
=61	=61	=61	=61	=61	=61	=61	=61	=61	=61	=61	=61	=61	=61
!	!	!	!	!	!	!LO:TX:a:t=|	!	!	!	!	!LO:DY:a:t=pianiſs&colon;	!	!LO:DY:a:t=pianiſs&colon;
8B\L	p	8B\L	p	8g/L	p	8dd\L	.	4dT\	Lae-	8G/	pp	8G/	pp
8B\	.	8B\	.	8g/	.	(8dd\	.	.	.	8r	.	8r	.
8B\	.	8B\	.	8g/	.	8ee\	.	4CT/	-ti	8G/	.	8G/	.
8B\J	.	8B\J	.	8g/J	.	8ffn\J)	.	.	.	8r	.	8r	.
!	!	!	!	!	!	!	!	!	!	!	!	!LO:LB:g=original	!
=62	=62	=62	=62	=62	=62	=62	=62	=62	=62	=62	=62	=62	=62
.	.	.	.	.	.	8qqgg/	.	.	.	.	.	.	.
4c\	.	4c\	.	4g/	.	(8ff#\L	.	8C\L	de-	4G/	.	4G/	.
.	.	.	.	.	.	8ee\J)	.	16D\L	.	.	.	.	.
.	.	.	.	.	.	.	.	16E\JJ	.	.	.	.	.
4r	.	4r	.	4r	.	4r	.	16Fn\LL	.	4r	.	4r	.
.	.	.	.	.	.	.	.	16G\	.	.	.	.	.
.	.	.	.	.	.	.	.	16A\	.	.	.	.	.
.	.	.	.	.	.	.	.	16B\JJ	.	.	.	.	.
!	!	!	!	!	!	!	!	!	!	!LO:LB:g=original	!	!	!
=63	=63	=63	=63	=63	=63	=63	=63	=63	=63	=63	=63	=63	=63
!	!	!	!	!	!	!	!	!	!	!LO:TX:a:t=12.	!	!LO:TX:a:t=12.	!
8A\L	.	8A\L	.	8f#/L	.	8r	.	4c\	.	0r	.	0r	.
8A\	.	8A\	.	8f#/	.	8cc\L	.	.	.	.	.	.	.
!	!	!	!	!	!	!	!	!LO:LB:g=original	!	!	!	!	!
8A\	.	8A\	.	8f#/	.	8dd\	.	4AAT/	-can-	.	.	.	.
8A\J	.	8A\J	.	8f#/J	.	8ee\J	.	.	.	.	.	.	.
!	!	!LO:LB:g=original	!	!	!	!LO:LB:g=original	!	!	!	!	!	!	!
=64	=64	=64	=64	=64	=64	=64	=64	=64	=64	=64	=64	=64	=64
4B\	.	4B\	.	4f#/	.	(8ee\L	.	8BB/L	-ta-	.	.	.	.
.	.	.	.	.	.	8dd\J)	.	16C/L	.	.	.	.	.
.	.	.	.	.	.	.	.	16D/JJ	.	.	.	.	.
4r	.	4r	.	4r	.	4r	.	16E\LL	.	.	.	.	.
.	.	.	.	.	.	.	.	16F#X\	.	.	.	.	.
.	.	.	.	.	.	.	.	16G\	.	.	.	.	.
.	.	.	.	.	.	.	.	16B\JJ	.	.	.	.	.
=65	=65	=65	=65	=65	=65	=65	=65	=65	=65	=65	=65	=65	=65
8G\L	.	8G\L	.	8e/L	.	8r	.	4B\	.	.	.	.	.
8G\	.	8G\	.	8e/	.	8b\L	.	.	.	.	.	.	.
8G\	.	8G\	.	8e/	.	8cc\	.	4GG/	.	.	.	.	.
8G\J	.	8G\J	.	8e/J	.	8dd\J	.	.	.	.	.	.	.
=66	=66	=66	=66	=66	=66	=66	=66	=66	=66	=66	=66	=66	=66
4A\	.	4A\	.	4e/	.	8dd\L	.	8AA/L	.	.	.	.	.
.	.	.	.	.	.	8cc\J	.	16BB/L	.	.	.	.	.
.	.	.	.	.	.	.	.	16C/JJ	.	.	.	.	.
4r	.	4r	.	4r	.	4r	.	16D\LL	.	.	.	.	.
.	.	.	.	.	.	.	.	16E\	.	.	.	.	.
.	.	.	.	.	.	.	.	16F#\	.	.	.	.	.
.	.	.	.	.	.	.	.	16G\JJ	.	.	.	.	.
!	!	!	!	!LO:LB:g=original	!	!	!	!	!	!	!	!	!
=67	=67	=67	=67	=67	=67	=67	=67	=67	=67	=67	=67	=67	=67
8F#\L	.	8F#\L	.	8d/L	.	8r	.	8A\L	.	0r	.	0r	.
8F#\	.	8F#\	.	8d/	.	8a\L	.	8c\J	.	.	.	.	.
8F#\	.	8F#\	.	8d/	.	8b\	.	8B\L	.	.	.	.	.
8F#\J	.	8F#\J	.	8d/J	.	8cc\J	.	8A\J	-te	.	.	.	.
!LO:LB:g=original	!	!	!	!	!	!	!	!	!	!	!	!	!
=68	=68	=68	=68	=68	=68	=68	=68	=68	=68	=68	=68	=68	=68
8G\L	.	8G\L	.	4dd\	.	16b\LL	.	8.GT\L	E-	.	.	.	.
.	.	.	.	.	.	16bb\	.	.	.	.	.	.	.
8G\	.	8G\	.	.	.	16bb\	.	.	.	.	.	.	.
.	.	.	.	.	.	16bb\JJ	.	32F#\LL	.	.	.	.	.
.	.	.	.	.	.	.	.	32G\JJJ	.	.	.	.	.
8G\	.	8G\	.	[4ee\	.	16bb\LL	.	4e\	-ja	.	.	.	.
.	.	.	.	.	.	16bb\	.	.	.	.	.	.	.
8G\J	.	8G\J	.	.	.	16bb\	.	.	.	.	.	.	.
.	.	.	.	.	.	16bb\JJ	.	.	.	.	.	.	.
=69	=69	=69	=69	=69	=69	=69	=69	=69	=69	=69	=69	=69	=69
!	!	!	!	!	!	!LO:TX:t=P:problem=mixed beam	!	!	!	!	!	!	!
8F#\L	.	8F#\L	.	4ee\]	.	16aa\LL	.	8.F#t\L	lae-	.	.	.	.
.	.	.	.	.	.	16a/	.	.	.	.	.	.	.
8F#\	.	8F#\	.	.	.	16a/	.	.	.	.	.	.	.
.	.	.	.	.	.	16a/JJ	.	32E\LL	.	.	.	.	.
.	.	.	.	.	.	.	.	32F#\JJJ	.	.	.	.	.
8F#\	.	8F#\	.	[4dd\	.	16a/LL	.	4d\	-ti	.	.	.	.
.	.	.	.	.	.	16a/	.	.	.	.	.	.	.
8F#\J	.	8F#\J	.	.	.	16a/	.	.	.	.	.	.	.
.	.	.	.	.	.	16a/JJ	.	.	.	.	.	.	.
!	!	!	!	!	!	!	!	!LO:LB:g=original	!	!	!	!	!
=70	=70	=70	=70	=70	=70	=70	=70	=70	=70	=70	=70	=70	=70
!	!	!	!	!	!	!LO:TX:t=P:problem=mixed beam	!	!LO:TX:a:t=t	!	!	!	!	!
8E\L	.	8E\L	.	4dd\]	.	16g/LL	.	8.E\L	Al-	.	.	.	.
.	.	.	.	.	.	16gg\	.	.	.	.	.	.	.
8E\	.	8E\	.	.	.	16gg\	.	.	.	.	.	.	.
.	.	.	.	.	.	16gg\JJ	.	32D\LL	.	.	.	.	.
.	.	.	.	.	.	.	.	32E\JJJ	.	.	.	.	.
8E\	.	8E\	.	[4cc\	.	16gg\LL	.	4c\	-mae	.	.	.	.
.	.	.	.	.	.	16gg\	.	.	.	.	.	.	.
8E\J	.	8E\J	.	.	.	16gg\	.	.	.	.	.	.	.
.	.	.	.	.	.	16gg\JJ	.	.	.	.	.	.	.
=71	=71	=71	=71	=71	=71	=71	=71	=71	=71	=71	=71	=71	=71
!	!	!	!	!	!	!LO:TX:t=P:problem=mixed beam	!	!	!	!	!	!	!
8D\L	.	8D/L	.	4cc\]	.	16ff#\LL	.	8.DT/L	Ma-	0r	.	0r	.
.	.	.	.	.	.	16f#/	.	.	.	.	.	.	.
8D\	.	8D/	.	.	.	16f#/	.	.	.	.	.	.	.
.	.	.	.	.	.	16f#/JJ	.	32C/LL	.	.	.	.	.
.	.	.	.	.	.	.	.	32D/JJJ	.	.	.	.	.
8D\	.	8D/	.	[4b\	.	16f#/LL	.	4B\	-tris	.	.	.	.
.	.	.	.	.	.	16f#/	.	.	.	.	.	.	.
8D\J	.	8D/J	.	.	.	16f#/	.	.	.	.	.	.	.
.	.	.	.	.	.	16f#/JJ	.	.	.	.	.	.	.
=72	=72	=72	=72	=72	=72	=72	=72	=72	=72	=72	=72	=72	=72
!	!	!	!	!	!	!LO:TX:t=P:problem=mixed beam	!	!	!	!	!	!	!
8C/L	.	8C/L	.	4b\]	.	16e/LL	.	8.CT/L	Lau-	.	.	.	.
.	.	.	.	.	.	16ee\	.	.	.	.	.	.	.
8C/	.	8C/	.	.	.	16ee\	.	.	.	.	.	.	.
.	.	.	.	.	.	16ee\JJ	.	(32BB/LL	.	.	.	.	.
.	.	.	.	.	.	.	.	32C/JJJ)	.	.	.	.	.
8C/	.	8C/	.	[4a/	.	16ee\LL	.	4A\	-des	.	.	.	.
.	.	.	.	.	.	16ee\	.	.	.	.	.	.	.
8C/J	.	8C/J	.	.	.	16ee\	.	.	.	.	.	.	.
.	.	.	.	.	.	16ee\JJ	.	.	.	.	.	.	.
=73	=73	=73	=73	=73	=73	=73	=73	=73	=73	=73	=73	=73	=73
!	!	!	!	!	!	!LO:TX:t=P:problem=mixed beam	!	!	!	!	!	!	!
8BB/L	.	8BB/L	.	4a/]	.	16dd\LL	.	8.BBt/L	Con-	.	.	.	.
.	.	.	.	.	.	16d/	.	.	.	.	.	.	.
8BB/	.	8BB/	.	.	.	16d/	.	.	.	.	.	.	.
.	.	.	.	.	.	16d/JJ	.	32AA/LL	.	.	.	.	.
.	.	.	.	.	.	.	.	32BB/JJJ	.	.	.	.	.
8BB/	.	8BB/	.	4g/	.	16d/LL	.	4G\	-so-	.	.	.	.
.	.	.	.	.	.	16d/	.	.	.	.	.	.	.
8BB/J	.	8BB/J	.	.	.	16d/	.	.	.	.	.	.	.
.	.	.	.	.	.	16d/JJ	.	.	.	.	.	.	.
!	!	!	!	!	!	!LO:LB:g=original	!	!	!	!	!	!	!
=74	=74	=74	=74	=74	=74	=74	=74	=74	=74	=74	=74	=74	=74
!	!	!	!	!	!	!LO:TX:t=P:problem=mixed beam	!	!	!	!	!	!	!
8AA/L	.	8AA/L	.	4g/	.	16c/LL	.	8.AAT/L	-na-	.	.	.	.
.	.	.	.	.	.	16cc\	.	.	.	.	.	.	.
8AA/	.	8AA/	.	.	.	16cc\	.	.	.	.	.	.	.
.	.	.	.	.	.	16cc\JJ	.	32GG/LL	.	.	.	.	.
.	.	.	.	.	.	.	.	32AA/JJJ	.	.	.	.	.
8AA/	.	8AA/	.	4f#/	.	16cc\LL	.	4F#\	-te	.	.	.	.
.	.	.	.	.	.	16cc\	.	.	.	.	.	.	.
8AA/J	.	8AA/J	.	.	.	16cc\	.	.	.	.	.	.	.
.	.	.	.	.	.	16cc\JJ	.	.	.	.	.	.	.
!	!	!	!	!	!	!	!	!	!	!LO:LB:g=original	!	!	!
=75	=75	=75	=75	=75	=75	=75!|:	=75	=75	=75	=75	=75	=75	=75
8GG/L	.	8GG/L	.	(32g/LLL	.	(32b/LLL	.	4G\	de-	[2G/	.	[2G/	.
.	.	.	.	32a/JJ	.	32a/JJ	.	.	.	.	.	.	.
.	.	.	.	8.b/J)	.	8.g/J)	.	.	.	.	.	.	.
8GG/	.	8GG/	.	.	.	.	.	.	.	.	.	.	.
8GG/	.	8GG/	.	(32cc\LLL	.	(32ee\LLL	.	32e\LLL	.	.	.	.	.
.	.	.	.	32b\JJ)	.	32dd\JJ	.	32d\JJ	.	.	.	.	.
.	.	.	.	8.a\J	.	8.cc\J)	.	8.c\J	-can-	.	.	.	.
8GG/J	.	8GG/J	.	.	.	.	.	.	.	.	.	.	.
=76	=76	=76	=76	=76	=76	=76	=76	=76	=76	=76	=76	=76	=76
8GG/L	.	8GG/L	.	(32b/LLL	.	(32dd\LLL	.	32d\LLL	-ta-	2G/_	.	2G/_	.
.	.	.	.	32a/JJ	.	32cc\JJ	.	32c\JJ	.	.	.	.	.
.	.	.	.	8.g/J)	.	8.b\J)	.	8.B\J	.	.	.	.	.
8GG/	.	8GG/	.	.	.	.	.	.	.	.	.	.	.
!	!	!	!	!	!	!	!	!LO:LB:g=original	!	!	!	!	!
8GG/	.	8GG/	.	(32a/LLL	.	(32cc\LLL	.	32c\LLL	.	.	.	.	.
.	.	.	.	32g/JJ	.	32b\JJ	.	32B\JJ	.	.	.	.	.
.	.	.	.	8.f#/J)	.	8.a\J)	.	8.A\J	.	.	.	.	.
8GG/J	.	8GG/J	.	.	.	.	.	.	.	.	.	.	.
!	!	!LO:LB:g=original	!	!	!	!	!	!	!	!	!	!	!
=77	=77	=77	=77	=77	=77	=77:|!	=77	=77	=77	=77	=77	=77	=77
!	!	!	!	!	!	!LO:TX:t=P:problem=takty 77-78 zapisane repetycją	!	!	!	!	!	!	!
8GG/L	.	8GG/L	.	(32g/LLL	.	(yy32b/LLLyy	.	32B\LLL	.	2G/]	.	2G/]	.
.	.	.	.	32a/JJ	.	32a/JJyy	.	32A\JJ	.	.	.	.	.
.	.	.	.	8.b/J)	.	8.g/J)yy	.	8.G\J	.	.	.	.	.
8GG/	.	8GG/	.	.	.	.	.	.	.	.	.	.	.
!	!	!	!	!LO:LB:g=original	!	!	!	!	!	!	!	!	!
8GG/	.	8GG/	.	(32cc\LLL	.	(yy32ee\LLLyy	.	32e\LLL	.	.	.	.	.
.	.	.	.	32b\JJ	.	32dd\JJyy	.	32d\JJ	.	.	.	.	.
.	.	.	.	8.a\J)	.	8.cc\J)yy	.	8.c\J	.	.	.	.	.
8GG/J	.	8GG/J	.	.	.	.	.	.	.	.	.	.	.
=78	=78	=78	=78	=78	=78	=78	=78	=78	=78	=78	=78	=78	=78
!	!	!	!	!	!	!	!	!	!	!LO:TX:a:t=1	!	!LO:TX:a:t=1	!
8GG/L	.	8GG/L	.	(32b/LLL	.	(y32dd\LLLyy	.	32d\LLL	.	2r	.	2r	.
.	.	.	.	32a/JJ	.	32cc\JJyy	.	32c\JJ	.	.	.	.	.
.	.	.	.	8.g/J)	.	8.b\J)yy	.	8.B\J	.	.	.	.	.
8GG/	.	8GG/	.	.	.	.	.	.	.	.	.	.	.
8GG/	.	8GG/	.	(32a/LLL	.	(yy32cc\LLLyy	.	32c\LLL	.	.	.	.	.
.	.	.	.	32g/JJ	.	32b\JJyy	.	32B\JJ	.	.	.	.	.
.	.	.	.	8.f#/J)	.	8.a\J)yy	.	8.A\J	.	.	.	.	.
8GG/J	.	8GG/J	.	.	.	.	.	.	.	.	.	.	.
=79	=79	=79	=79	=79	=79	=79	=79	=79	=79	=79	=79	=79	=79
!	!	!	!	!	!	!	!	!LO:TX:t=P:problem=mixed beam	!	!	!	!	!
4GG/	.	4GG/	.	4G/ 4d/ 4b/ 4gg/	.	4G/ 4d/ 4b/ 4gg/	.	16B\LL	.	4G/	.	4d/	.
.	.	.	.	.	.	.	.	16GG/	.	.	.	.	.
.	.	.	.	.	.	.	.	16AA/	.	.	.	.	.
.	.	.	.	.	.	.	.	16BB/JJ	.	.	.	.	.
4r	.	4r	.	4r	.	4r	.	16C\LL	.	4r	.	4r	.
.	.	.	.	.	.	.	.	16D\	.	.	.	.	.
.	.	.	.	.	.	.	.	16E\	.	.	.	.	.
.	.	.	.	.	.	.	.	16F#\JJ	.	.	.	.	.
!LO:LB:g=original	!	!	!	!	!	!	!	!	!	!	!	!	!
=80	=80	=80	=80	=80	=80	=80	=80	=80	=80	=80	=80	=80	=80
!	!	!	!	!	!	!	!	!LO:TX:t=P:problem=mixed beam	!	!	!	!	!
4GG/	.	4GG/	.	4G/ 4d/ 4b/ 4gg/	.	4G/ 4d/ 4b/ 4gg/	.	16G\LL	.	4G/	.	4d/	.
.	.	.	.	.	.	.	.	16BB/	.	.	.	.	.
.	.	.	.	.	.	.	.	16C/	.	.	.	.	.
.	.	.	.	.	.	.	.	16D/JJ	.	.	.	.	.
4r	.	4r	.	4r	.	4r	.	16E\LL	.	4r	.	4r	.
.	.	.	.	.	.	.	.	16F#\	.	.	.	.	.
.	.	.	.	.	.	.	.	16G\	.	.	.	.	.
.	.	.	.	.	.	.	.	16A\JJ	.	.	.	.	.
=81	=81	=81	=81	=81	=81	=81	=81	=81	=81	=81	=81	=81	=81
4GG/	.	4GG/	.	4G/ 4d/ 4b/ 4gg/	.	4G/ 4d/ 4b/ 4gg/	.	16B\LL	.	4G/	.	4d/	.
.	.	.	.	.	.	.	.	16D\	.	.	.	.	.
.	.	.	.	.	.	.	.	16E\	.	.	.	.	.
.	.	.	.	.	.	.	.	16F#\JJ	.	.	.	.	.
!	!	!	!	!	!	!	!	!LO:LB:g=original	!	!	!	!	!
4r	.	4r	.	4r	.	4r	.	16G\LL	.	4r	.	4r	.
.	.	.	.	.	.	.	.	16A\	.	.	.	.	.
.	.	.	.	.	.	.	.	16B\	.	.	.	.	.
.	.	.	.	.	.	.	.	16c\JJ	.	.	.	.	.
=82	=82	=82	=82	=82	=82	=82	=82	=82	=82	=82	=82	=82	=82
4GG/	.	4GG/	.	4G/ 4d/ 4b/ 4gg/	.	4G/ 4d/ 4b/ 4gg/	.	16d\LL	.	4G/	.	4d/	.
.	.	.	.	.	.	.	.	16G\	.	.	.	.	.
.	.	.	.	.	.	.	.	16A\	.	.	.	.	.
.	.	.	.	.	.	.	.	16B\JJ	.	.	.	.	.
4r	.	4r	.	4r	.	4r	.	16c\LL	.	4r	.	4r	.
.	.	.	.	.	.	.	.	16d\	.	.	.	.	.
.	.	.	.	.	.	.	.	16e\	.	.	.	.	.
.	.	.	.	.	.	.	.	16f#\JJ	.	.	.	.	.
=83	=83	=83	=83	=83	=83	=83	=83	=83	=83	=83	=83	=83	=83
!	!	!	!	!	!	!	!	!	!	!LO:TX:a:t=2	!	!LO:TX:a:t=2.	!
8r	.	8r	.	8r	mf	8r	mf	8d\	-te	1r	.	1r	.
!LO:TX:a:t=|	!	!LO:TX:a:t=|	!	!LO:TX:a:t=|	!	!LO:TX:a:t=|	!	!	!	!	!	!	!
8d\L	.	8d\L	.	8dd\L	.	8ddd\L	.	8d\	Ma-	.	.	.	.
!LO:TX:a:t=|	!	!LO:TX:a:t=|	!	!LO:TX:a:t=|	!	!LO:TX:a:t=|	!	!	!	!	!	!	!
8B\	.	8B\	.	8b\	.	8bb\	.	8B\	-ri-	.	.	.	.
!LO:TX:a:t=|	!	!LO:TX:a:t=|	!	!LO:TX:a:t=|	!	!LO:TX:a:t=|	!	!	!	!	!	!	!
8F#\J	.	8F#\J	.	8f#\J	.	8ff#\J	.	8F#\	-ae	.	.	.	.
=84	=84	=84	=84	=84	=84	=84	=84	=84	=84	=84	=84	=84	=84
!LO:TX:a:t=|	!	!LO:TX:a:t=|	!	!	!	!LO:TX:t=P:problem=mixed beam	!	!	!	!	!	!	!
8G\L	.	8G\L	.	8g/L	.	8gg\L	.	8G\	Lau-	.	.	.	.
!LO:TX:a:t=|	!	!LO:TX:a:t=|	!	!LO:TX:b:t=|	!	!	!	!	!	!	!	!	!
8E-X\	.	8E-X\	.	8e-X/	.	8e-X/	.	8E-X\	-des	.	.	.	.
!LO:TX:a:t=|	!	!LO:TX:a:t=|	!	!LO:TX:b:t=|	!	!	!	!	!	!	!	!	!
8D#X\	.	8D#X\	.	8d/	.	8d/	.	8D/	de-	.	.	.	.
!LO:TX:a:t=|	!	!LO:TX:a:t=|	!	!LO:TX:b:t=|	!	!	!	!	!	!	!	!	!
8C\J	.	8C\J	.	8c#X/J	.	8c#X/J	.	8C#X/	-can-	.	.	.	.
=85	=85	=85	=85	=85	=85	=85	=85	=85	=85	=85	=85	=85	=85
!	!	!	!	!	!	!LO:TX:t=P:problem=mixed beam	!	!	!	!	!	!	!
8D\L	.	8D/L	.	(16d/LL	.	(16d/LL	.	[2D\	-ta-	2g\	.	2b\	.
.	.	.	.	16g/	.	16b\	.	.	.	.	.	.	.
8D\	.	8D/	.	16b/	.	16gg\)	.	.	.	.	.	.	.
.	.	.	.	16g/JJ)	.	16b\JJ	.	.	.	.	.	.	.
8D\	.	8D/	.	16b/LL	.	16gg\LL	.	.	.	.	.	.	.
.	.	.	.	16g/	.	16b\	.	.	.	.	.	.	.
8D\J	.	8D/J	.	16b/	.	16gg\	.	.	.	.	.	.	.
.	.	.	.	16g/JJ	.	16b\JJ	.	.	.	.	.	.	.
!	!	!	!	!	!	!	!	!	!	!	!	!LO:LB:g=original	!
=86	=86	=86	=86	=86	=86	=86	=86	=86	=86	=86	=86	=86	=86
!	!	!	!	!	!	!LO:TX:t=P:problem=mixed beam	!	!	!	!LO:TX:b:t==Vi	!	!	!
8D\L	.	8D/L	.	(16d/LL	.	16d/LL	.	2DT\]	.	2d/	.	2aT\	.
.	.	.	.	16f#/	.	16a\	.	.	.	.	.	.	.
8D\	.	8D/	.	16a/)	.	16ff#\	.	.	.	.	.	.	.
.	.	.	.	16f#/JJ	.	16a\JJ	.	.	.	.	.	.	.
8D\	.	8D/	.	16a/LL	.	16ff#\LL	.	.	.	.	.	.	.
.	.	.	.	16f#/	.	16a\	.	.	.	.	.	.	.
8D\J	.	8D/J	.	16a/	.	16ff#\	.	.	.	.	.	.	.
.	.	.	.	16f#/JJ	.	16a\JJ	.	.	.	.	.	.	.
!	!	!	!	!LO:LB:g=original	!	!	!	!	!	!LO:LB:g=original	!	!	!
=87	=87	=87	=87	=87	=87	=87	=87	=87	=87	=87	=87	=87	=87
!LO:TX:b:t=|	!	!LO:TX:b:t=|	!	!LO:TX:b:t=|	!	!	!	!	!	!LO:TX:b:t==de	!	!LO:TX:a:t=|	!
4GG/	p	4GG/	p	4G/	.	4g/	.	4GG/	-te	4G/	.	4g\	.
!LO:TX:b:t=|	!	!LO:TX:b:t=|	!	!LO:TX:b:t=|	!	!	!	!	!	!	!	!LO:TX:a:t=|	!
4BB/	.	4BB/	.	4B/	.	4b/	.	4r	.	4B/	.	4a\	.
!	!	!	!	!	!	!LO:LB:g=original	!	!	!	!	!	!	!
=88	=88	=88	=88	=88	=88	=88	=88	=88	=88	=88	=88	=88	=88
!LO:TX:b:t=|	!	!LO:TX:b:t=|	!	!LO:TX:b:t=|	!	!	!	!	!	!	!	!	!
4D/	.	4D/	.	4d/	.	4dd\	.	0r	.	4d/	.	4dd\	.
8r	.	8r	.	8r	.	8r	.	.	.	8r	.	8r	.
!	!	!	!	!	!	!LO:TUP:a:problem=klamra łukowa	!	!	!	!	!	!	!
8D/	.	8D/	.	24d/LL	.	24dd\LL	.	.	.	8d/	.	8dd\	.
.	.	.	.	24e/	.	24ee\	.	.	.	.	.	.	.
.	.	.	.	24f#/JJ	.	24ff#\JJ	.	.	.	.	.	.	.
!	!	!LO:LB:g=original	!	!	!	!	!	!	!	!	!	!	!
=89	=89	=89	=89	=89	=89	=89	=89	=89	=89	=89	=89	=89	=89
!LO:TX:a:t=|	!	!LO:TX:a:t=|	!	!LO:TX:b:t=|	!	!LO:TX:a:t=|	!	!	!	!	!	!	!
8G\L	.	8G\L	.	8g/L	.	8gg\L	.	.	.	8g\L	.	8gg\L	.
!LO:TX:a:t=|	!	!LO:TX:a:t=|	!	!LO:TX:b:t=|	!	!LO:TX:a:t=|	!	!	!	!	!	!	!
8D\	.	8D\	.	8d/	.	8dd\	.	.	.	8d\J	.	8dd\	.
!LO:TX:a:t=|	!	!LO:TX:a:t=|	!	!LO:TX:b:t=|	!	!LO:TX:a:t=|	!	!	!	!	!	!	!
8BB\	.	8BB\	.	8B/	.	8b\	.	.	.	8B/L	.	8b\	.
!LO:TX:a:t=|	!	!LO:TX:a:t=|	!	!LO:TX:b:t=|	!	!LO:TX:a:t=|	!	!	!	!	!	!	!
8D\J	.	8D\J	.	8d/J	.	8dd\J	.	.	.	8d/J	.	8dd\J	.
=90	=90	=90	=90	=90	=90	=90	=90	=90	=90	=90	=90	=90	=90
!LO:TX:t=P:problem=mixed beam	!	!LO:TX:t=P:problem=mixed beam	!	!	!	!	!	!	!	!	!	!	!
8GG/L	.	8GG/L	.	4G/ 4d/ 4b/ 4gg/	.	4G/ 4d/ 4b/ 4gg/	.	.	.	4G/	.	4g\	.
16G\L	.	16G\L	.	.	.	.	.	.	.	.	.	.	.
16F#/JJ	.	16F#\JJ	.	.	.	.	.	.	.	.	.	.	.
8G\L	.	8G\L	.	8r	.	8r	.	.	.	4r	.	4r	.
8G\J	.	8G\J	.	8b/	.	(32ee\KLL	.	.	.	.	.	.	.
.	.	.	.	.	.	16.cc#X\JJ)	.	.	.	.	.	.	.
!LO:LB:g=original	!	!	!	!	!	!	!	!	!	!	!	!	!
=91	=91	=91	=91	=91	=91	=91	=91	=91	=91	=91	=91	=91	=91
!	!	!	!	!	!	!LO:TX:a:t=|	!	!	!	!LO:TX:a:t=1	!	!LO:TX:a:t=1	!
8F#\L	.	8F#\L	.	8a/L	.	8dd\L	.	.	.	2r	.	2r	.
8G\	.	8G\	.	8b/J	.	(32ee\KL	.	.	.	.	.	.	.
.	.	.	.	.	.	16.cc#X\JJ)	.	.	.	.	.	.	.
!	!	!	!	!	!	!LO:TX:a:t=|	!	!	!	!	!	!	!
8F#\	.	8F#\	.	8a/L	.	8dd\L	.	.	.	.	.	.	.
8G\J	.	8G\J	.	8b/J	.	(32ee\KL	.	.	.	.	.	.	.
.	.	.	.	.	.	16.cc#\JJ)	.	.	.	.	.	.	.
=92	=92	=92	=92	=92	=92	=92	=92	=92	=92	=92	=92	=92	=92
8F#\L	.	8F#\L	.	8a\L	.	16dd\LL	.	0r	.	2d/	.	2a\	.
.	.	.	.	.	.	16ee\	.	.	.	.	.	.	.
8D\	.	8D\	.	16dd\L	.	16ff#\	.	.	.	.	.	.	.
.	.	.	.	16ee\JJ	.	16gg\JJ	.	.	.	.	.	.	.
8D\	.	8D\	.	16ff#\LL	.	16aa\LL	.	.	.	.	.	.	.
.	.	.	.	16gg\	.	16bb\	.	.	.	.	.	.	.
8D\J	.	8D\J	.	16aa\	.	16ccc\	.	.	.	.	.	.	.
.	.	.	.	16ff#\JJ	.	16aa\JJ	.	.	.	.	.	.	.
=93	=93	=93	=93	=93	=93	=93	=93	=93	=93	=93	=93	=93	=93
8G\L	.	8G\L	.	8gg\L	.	(16bb\LL	.	.	.	4g\	.	4b\	.
.	.	.	.	.	.	16ddd\)	.	.	.	.	.	.	.
8B\	.	8B\	.	8dd\J	.	(16gg\	.	.	.	.	.	.	.
.	.	.	.	.	.	16bb\JJ)	.	.	.	.	.	.	.
8c\	.	8c\	.	(16cc\LL	.	(16aa\LL	.	.	.	8r	.	4aT\	.
.	.	.	.	16ee\)	.	16ccc\)	.	.	.	.	.	.	.
!	!	!	!	!LO:TX:a:t=|	!	!	!	!	!	!	!	!	!
8d\J	.	8d\J	.	16a\	.	(16ff#\	.	.	.	8e/	.	.	.
!	!	!	!	!LO:TX:a:t=|	!	!	!	!	!	!	!	!	!
.	.	.	.	16cc\JJ	.	16aa\JJ)	.	.	.	.	.	.	.
=94	=94	=94	=94	=94	=94	=94	=94	=94	=94	=94	=94	=94	=94
.	.	.	.	8qqcc/	.	8qqaa/	.	.	.	.	.	.	.
16r	.	16r	.	4b/	.	4gg\	.	.	.	8B/L	.	8g\L	.
16G\LL	.	16G\LL	.	.	.	.	.	.	.	.	.	.	.
16D\	.	16D\	.	.	.	.	.	.	.	16G/L	.	16d\L	.
16BB\JJ	.	16BB\JJ	.	.	.	.	.	.	.	16G/JJ	.	16d\JJ	.
!	!	!	!	!	!	!	!	!	!	!LO:LB:g=original	!	!	!
!	!	!LO:TX:t=P:problem=mixed beam	!	!	!	!	!	!	!	!	!	!	!
8GG/L	.	8GG/L	.	8r	.	8r	.	.	.	8G/	.	8d/	.
8G\J	.	8G\J	.	8B/	p	(32e/KLL	.	.	.	8r	.	8r	.
.	.	.	.	.	.	16.c#X/JJ)	.	.	.	.	.	.	.
!	!	!	!	!LO:LB:g=original	!	!	!	!	!	!	!	!LO:LB:g=original	!
=95	=95	=95	=95	=95	=95	=95	=95	=95	=95	=95	=95	=95	=95
!	!	!	!	!	!	!LO:TX:b:t=|	!	!	!	!LO:TX:a:t=1	!	!LO:TX:a:t=1	!
8F#\L	.	8F#\L	.	8A/L	.	8d/L	.	.	.	2r	.	2r	.
8G\J	.	8G\J	.	8A/J	.	(32e/KL	.	.	.	.	.	.	.
.	.	.	.	.	.	16.c#X/JJ)	.	.	.	.	.	.	.
!	!	!	!	!	!	!LO:TX:b:t=|	!	!	!	!	!	!	!
8F#\L	.	8F#\L	.	8A/L	.	8d/L	.	.	.	.	.	.	.
8G\J	.	8G\J	.	8B/J	.	(32e/KL	.	.	.	.	.	.	.
.	.	.	.	.	.	16.c#/JJ)	.	.	.	.	.	.	.
=96	=96	=96	=96	=96	=96	=96	=96	=96	=96	=96	=96	=96	=96
8F#\L	p	8F#\L	p	16A/LL	.	(16d/LL	.	1r	.	2d/	.	2a\	.
.	.	.	.	16d/	f	16f#/	.	.	.	.	.	.	.
8D\	.	8D\	.	16f#/	.	16a/)	.	.	.	.	.	.	.
!	!	!	!	!	!	!LO:TX:b:t=|	!	!	!	!	!	!	!
.	.	.	.	16a/JJ	.	16ccn/JJ	.	.	.	.	.	.	.
!	!	!	!	!	!	!LO:LB:g=original	!	!	!	!	!	!	!
!	!	!	!	!	!	!LO:TX:a:t=|	!	!	!	!	!	!	!
8D\	.	8D\	.	16cc\LL	.	16ee\LL	.	.	.	.	.	.	.
.	.	.	.	16a\	.	(16cc\	.	.	.	.	.	.	.
8D\J	.	8D\J	.	16g\	.	16b\	.	.	.	.	.	.	.
.	.	.	.	16f#\JJ	.	16a\JJ)	.	.	.	.	.	.	.
=97	=97	=97	=97	=97	=97	=97	=97	=97	=97	=97	=97	=97	=97
!LO:TX:t=P:problem=mixed beam	!	!	!	!	!	!	!	!	!	!	!	!	!
8G\L	p	8G\L	.	8g/L	.	(16b\LL	.	.	.	4g\	.	4b\	.
.	.	.	.	.	.	16dd\)	.	.	.	.	.	.	.
!LO:TX:b:t=|	!	!LO:TX:b:t=|	!	!	!	!LO:TX:a:t=|	!	!	!	!	!	!	!
8BB/	.	8BB/	.	8d/J	.	16g\	.	.	.	.	.	.	.
!	!	!	!	!	!	!LO:TX:a:t=|	!	!	!	!	!	!	!
.	.	.	.	.	.	16b\JJ	.	.	.	.	.	.	.
!LO:TX:b:t=|	!	!LO:TX:b:t=|	!	!	!	!	!	!	!	!	!	!	!
8C/	.	8C/	.	(16c/LL	.	(16a\LL	.	.	.	8r	.	4aT\	.
.	.	.	.	16e/)	.	16cc\)	.	.	.	.	.	.	.
!LO:TX:b:t=|	!	!LO:TX:b:t=|	!	!LO:TX:b:t=|	!	!LO:TX:a:t=|	!	!	!	!	!	!	!
8D/J	.	8D/J	.	16A/	.	16f#\	.	.	.	8d/	.	.	.
!	!	!	!	!LO:TX:b:t=|	!	!LO:TX:a:t=|	!	!	!	!	!	!	!
.	.	.	.	16c/JJ	.	16a\JJ	.	.	.	.	.	.	.
!	!	!LO:LB:g=original	!	!	!	!	!	!	!	!	!	!	!
=98	=98	=98	=98	=98	=98	=98	=98	=98	=98	=98	=98	=98	=98
!LO:TX:t=P:problem=mixed beam	!	!LO:TX:t=P:problem=mixed beam	!	!	!	!	!	!	!	!	!	!	!
16GG/LL	.	16GG/LL	.	8B/L	.	8g/L	.	2r;<;>	.	8B/L	.	8g\L	.
16G\	.	16G\	.	.	.	.	.	.	.	.	.	.	.
16F#\	.	16F#\	.	8d/J	.	8d/J	.	.	.	16B/L	.	16g\L	.
16G\JJ	.	16G\JJ	.	.	.	.	.	.	.	16B/JJ	.	16g\JJ	.
8GG/	.	8GG/	.	;<8G/ 8d/ 8b/ 8gg/;>	.	8G/ 8d/ 8b/ 8gg/	.	.	.	8B/	.	8g\	.
!	!	!	!	!LO:SIC:v:s:t=brak pauzy	!	!	!	!	!	!	!	!	!
8r;<;>	.	8r;<;>	.	8ryy	.	8r;<;>	.	.	.	8r;<;>	.	8r;<;>	.
!	!	!	!	!	!	!	!	!LO:LB:g=original	!	!	!	!	!
=99||	=99||	=99||	=99||	=99||	=99||	=99||	=99||	=99||	=99||	=99||	=99||	=99||	=99||
!	!	!	!	!	!	!	!	!	!	!LO:TX:a:t=24	!	!LO:TX:a:t=24.	!
8C/L	p	8C/L	p	8ee\L	p	8gg\L	p	(4c\	Ma-	0r	.	0r	.
8C/	.	8C/	.	8ee\	.	8gg\	.	.	.	.	.	.	.
8C/	.	8C/	.	8ee\	.	8gg\	.	8e\L)	.	.	.	.	.
!	!	!	!	!	!	!	!	!LO:TX:a:t=|	!	!	!	!	!
8C/J	.	8C/J	.	8ee\J	.	8gg\J	.	8G\J	-riae	.	.	.	.
!LO:LB:g=original	!	!	!	!	!	!	!	!	!	!	!	!	!
=100	=100	=100	=100	=100	=100	=100	=100	=100	=100	=100	=100	=100	=100
8C/L	.	8C/L	.	8ffn\L	.	8aa\L	.	4AT\	No-	.	.	.	.
8C/	.	8C/	.	8ff\J	.	8aa\J	.	.	.	.	.	.	.
8C/	.	8C/	.	(16ee\LL	.	(16gg\LL	.	4G\	-men	.	.	.	.
.	.	.	.	16dd\	.	16ffn\	.	.	.	.	.	.	.
8C/J	.	8C/J	.	16cc\)	.	16ee\	.	.	.	.	.	.	.
!	!	!	!	!LO:TX:a:t=|	!	!	!	!	!	!	!	!	!
.	.	.	.	16dd\JJ	.	16ff\JJ)	.	.	.	.	.	.	.
!	!	!	!	!LO:LB:g=original	!	!	!	!	!	!	!	!	!
=101	=101	=101	=101	=101	=101	=101	=101	=101	=101	=101	=101	=101	=101
8C/L	.	8C/L	.	8ee\L	.	8gg\L	.	4c\	Ce-	.	.	.	.
8C/	.	8C/	.	8ee\	.	8gg\	.	.	.	.	.	.	.
8C/	.	8C/	.	8ee\	.	8gg\	.	8E\	.	.	.	.	.
8C/J	.	8C/J	.	8ee\J	.	8gg\J	.	8G\	-le-	.	.	.	.
=102	=102	=102	=102	=102	=102	=102	=102	=102	=102	=102	=102	=102	=102
.	.	.	.	.	.	.	.	8qqG/	.	.	.	.	.
8C/L	.	8C/L	.	8dd\L	.	8ffn\L	.	4FnT\	-bra-	.	.	.	.
8C/J	.	8C/J	.	8dd\J	.	8ff\J	.	.	.	.	.	.	.
8C/L	.	8C/L	.	16cc\LL	.	16ee\LL	.	4E\	-te	.	.	.	.
.	.	.	.	16ee\	.	16cc\	.	.	.	.	.	.	.
8CC/J	.	8CC/J	.	16gg\	.	16ee\	.	.	.	.	.	.	.
.	.	.	.	16ee\JJ	.	16gg\JJ	.	.	.	.	.	.	.
=103	=103	=103	=103	=103	=103	=103	=103	=103	=103	=103	=103	=103	=103
!LO:TX:a:t=|	!	!LO:TX:a:t=|	!	!	!	!	!LO:DY:t=forte	!	!	!	!	!	!
8c\L	f	8c\L	f	16cc\LL	f	16ccc\LL	f	8c\	Om-	0r	.	0r	.
.	.	.	.	16cc\	.	16ccc\	.	.	.	.	.	.	.
!LO:TX:a:t=|	!	!LO:TX:a:t=|	!	!	!	!	!	!	!	!	!	!	!
8B\	.	8B\	.	16b\	.	16bb\	.	8B\	-nes	.	.	.	.
.	.	.	.	16b\JJ	.	16bb\JJ	.	.	.	.	.	.	.
!LO:TX:a:t=|	!	!LO:TX:a:t=|	!	!	!	!	!	!	!	!	!	!	!
8A\	.	8A\	.	16a/LL	.	16aa\LL	.	8A\	Gen-	.	.	.	.
.	.	.	.	16a/	.	16aa\	.	.	.	.	.	.	.
!LO:TX:a:t=|	!	!LO:TX:a:t=|	!	!	!	!	!	!	!	!	!	!	!
8G\J	.	8G\J	.	16g/	.	16gg\	.	8G\	-tes	.	.	.	.
.	.	.	.	16g/JJ	.	16gg\JJ	.	.	.	.	.	.	.
=104	=104	=104	=104	=104	=104	=104	=104	=104	=104	=104	=104	=104	=104
8A\L	.	8A\L	.	16a/LL	.	16aa\LL	.	(8A\	No-	.	.	.	.
.	.	.	.	16a/	.	16aa\	.	.	.	.	.	.	.
8G\	.	8G\	.	16g/	.	16gg\	.	8G\)	.	.	.	.	.
.	.	.	.	16g/JJ	.	16gg\JJ	.	.	.	.	.	.	.
8Fn\	.	8Fn\	.	16fn/LL	.	16ffn\LL	.	8Fn\	-men	.	.	.	.
.	.	.	.	16f/	.	16ff\	.	.	.	.	.	.	.
8E\J	.	8E\J	.	16e/	.	16ee\	.	8E\	Ma-	.	.	.	.
.	.	.	.	16e/JJ	.	16ee\JJ	.	.	.	.	.	.	.
=105	=105	=105	=105	=105	=105	=105	=105	=105	=105	=105	=105	=105	=105
!LO:SIC:v:o:s:t=samotny #	!	!	!	!	!	!	!	!	!	!	!	!	!
8Fn\L	.	8Fn\L	.	16fn/LL	.	16ffn\LL	.	8Fn\	-ri-	.	.	.	.
.	.	.	.	16f/	.	16ff\	.	.	.	.	.	.	.
8E\	.	8E\	.	16e/	.	16ee\	.	8E\	-ae	.	.	.	.
.	.	.	.	16e/JJ	.	16ee\JJ	.	.	.	.	.	.	.
!	!	!	!	!	!	!LO:LB:g=original	!	!LO:LB:g=original	!	!	!	!	!
8D\	.	8D\	.	16d/LL	.	16dd\LL	.	8D/	Ce-	.	.	.	.
.	.	.	.	16d/	.	16dd\	.	.	.	.	.	.	.
8C\J	.	8C\J	.	16c/	.	16cc\	.	8C/	-le-	.	.	.	.
.	.	.	.	16c/JJ	.	16cc\JJ	.	.	.	.	.	.	.
!	!	!LO:LB:g=original	!	!LO:LB:g=original	!	!	!	!	!	!	!	!	!
=106	=106	=106	=106	=106	=106	=106	=106	=106	=106	=106	=106	=106	=106
!LO:TX:t=P:problem=mixed beam	!	!LO:TX:t=P:problem=mixed beam	!	!	!	!LO:TX:t=P:problem=mixed beam	!	!	!	!	!	!	!
16G\LL	.	16G\LL	.	8g/L	.	8gg\L	.	8G\	-bra-	.	.	.	.
16GG/	.	16GG/	.	.	.	.	.	.	.	.	.	.	.
16AA/	.	16AA/	.	8G/J	.	8G/J	.	8GG/	-te	.	.	.	.
16BB/JJ	.	16BB/JJ	.	.	.	.	.	.	.	.	.	.	.
16C\LL	.	16C\LL	.	4r	.	4r	.	4r	.	.	.	.	.
16D\	.	16D\	.	.	.	.	.	.	.	.	.	.	.
16E\	.	16E\	.	.	.	.	.	.	.	.	.	.	.
16Fn\JJ	.	16Fn\JJ	.	.	.	.	.	.	.	.	.	.	.
!LO:LB:g=original	!	!	!	!	!	!	!	!	!	!	!	!	!
=107	=107	=107	=107	=107	=107	=107	=107	=107	=107	=107	=107	=107	=107
8E\L	p	8E\L	p	2g/	p	8r	.	4G\	No-	0r	.	0r	.
8E\	.	8E\	.	.	.	(16cc\LL	.	.	.	.	.	.	.
.	.	.	.	.	.	16dd\JJ)	.	.	.	.	.	.	.
8E\	.	8E\	.	.	.	8cc\L	.	4r	.	.	.	.	.
8E\J	.	8E\J	.	.	.	8cc\J	.	.	.	.	.	.	.
=108	=108	=108	=108	=108	=108	=108	=108	=108	=108	=108	=108	=108	=108
*	*	*	*	*	*	*2\right	*	*	*	*	*	*	*
8Fn\L	.	8Fn\L	.	8r	.	2ccT\	.	4A\	.	.	.	.	.
8F\	.	8F\	.	(16a/LL	.	.	.	.	.	.	.	.	.
.	.	.	.	16b-X/JJ	.	.	.	.	.	.	.	.	.
8F\	.	8F\	.	8a/L)	.	.	.	4r	.	.	.	.	.
!	!	!	!	!LO:TX:b:t=|	!	!	!	!	!	!	!	!	!
8F\J	.	8F\J	.	8a/J	.	.	.	.	.	.	.	.	.
=109	=109	=109	=109	=109	=109	=109	=109	=109	=109	=109	=109	=109	=109
8E\L	.	8E\L	.	2g/	.	8r	.	2B-X\	-men	.	.	.	.
8E\	.	8E\	.	.	.	(16cc\LL	.	.	.	.	.	.	.
.	.	.	.	.	.	16dd\JJ)	.	.	.	.	.	.	.
8E\	.	8E\	.	.	.	8cc\L	.	.	.	.	.	.	.
8E\J	.	8E\J	.	.	.	8cc\J	.	.	.	.	.	.	.
=110	=110	=110	=110	=110	=110	=110	=110	=110	=110	=110	=110	=110	=110
8Fn\L	.	8Fn\L	.	8r	.	2ccT\	.	(8.AT\	o-	.	.	.	.
8F\	.	8F\	.	(16a/LL	.	.	.	.	.	.	.	.	.
.	.	.	.	16b-X/JJ	.	.	.	16G\)	.	.	.	.	.
8F\	.	8F\	.	8a/L)	.	.	.	4Fn\	-mnes	.	.	.	.
!	!	!	!	!LO:TX:b:t=|	!	!	!	!	!	!	!	!	!
8F\J	.	8F\J	.	8a/J	.	.	.	.	.	.	.	.	.
=111	=111	=111	=111	=111	=111	=111	=111	=111	=111	=111	=111	=111	=111
8F#X\L	.	8F#X\L	.	2g/	.	8r	.	4A\	No-	0r	.	0r	.
8F#\	.	8F#\	.	.	.	(16dd\LL	.	.	.	.	.	.	.
.	.	.	.	.	.	16ee\JJ	.	.	.	.	.	.	.
8F#\	.	8F#\	.	.	.	8dd\L)	.	4r	.	.	.	.	.
!	!	!	!	!	!	!LO:TX:a:t=|	!	!	!	!	!	!	!
8F#\J	.	8F#\J	.	.	.	8dd\J	.	.	.	.	.	.	.
=112	=112	=112	=112	=112	=112	=112	=112	=112	=112	=112	=112	=112	=112
8G\L	.	8G\L	.	8r	.	2ddT\	.	4Bn\	.	.	.	.	.
8G\	.	8G\	.	(16bn\LL	.	.	.	.	.	.	.	.	.
.	.	.	.	16cc\JJ)	.	.	.	.	.	.	.	.	.
!	!	!	!	!LO:TX:a:t=|	!	!	!	!	!	!	!	!	!
8G\	.	8G\	.	8b\L	.	.	.	4r	.	.	.	.	.
8G\J	.	8G\J	.	8b\J	.	.	.	.	.	.	.	.	.
=113	=113	=113	=113	=113	=113	=113	=113	=113	=113	=113	=113	=113	=113
8F#X\L	.	8F#X\L	.	2a/	.	8r	.	4.c\	-men	.	.	.	.
8F#\	.	8F#\	.	.	.	(16dd\LL	.	.	.	.	.	.	.
.	.	.	.	.	.	16ee\JJ	.	.	.	.	.	.	.
8F#\	.	8F#\	.	.	.	8dd\L)	.	.	.	.	.	.	.
!	!	!	!	!	!	!LO:TX:a:t=|	!	!	!	!	!	!	!
8F#\J	.	8F#\J	.	.	.	8dd\J	.	8c\	o-	.	.	.	.
!	!	!LO:LB:g=original	!	!	!	!	!	!	!	!	!	!	!
=114	=114	=114	=114	=114	=114	=114	=114	=114	=114	=114	=114	=114	=114
8G\L	.	8G\L	.	8r	.	2ddT\	.	8.B\L	.	.	.	.	.
8G\	.	8G\	.	(16b\LL	.	.	.	.	.	.	.	.	.
.	.	.	.	16cc\JJ	.	.	.	16A\Jk	.	.	.	.	.
!	!	!	!	!	!	!	!	!LO:LB:g=original	!	!	!	!	!
8G\	.	8G\	.	8b\L)	.	.	.	4G\	-mnes	.	.	.	.
!	!	!	!	!LO:TX:a:t=|	!	!	!	!	!	!	!	!	!
8G\J	.	8G\J	.	8b\J	.	.	.	.	.	.	.	.	.
!LO:LB:g=original	!	!	!	!LO:LB:g=original	!	!	!	!	!	!	!	!	!
=115	=115	=115	=115	=115	=115	=115	=115	=115	=115	=115	=115	=115	=115
4r	.	4r	.	4r	.	4r	.	8c\	Gen-	0r	.	0r	.
.	.	.	.	.	.	.	.	8G\	-tes	.	.	.	.
!	!	!LO:TX:a:t=|	!	!LO:TX:a:t=|	!	!	!	!	!	!	!	!	!
8c~\L	.	8c\L	.	8ee\L	f	8ccc\L	.	4r	.	.	.	.	.
!	!	!LO:TX:a:t=|	!	!LO:TX:a:t=|	!	!	!	!	!	!	!	!	!
8G~\J	.	8G\J	.	8dd\J	.	8bb\J	.	.	.	.	.	.	.
=116	=116	=116	=116	=116	=116	=116	=116	=116	=116	=116	=116	=116	=116
4r	.	4r	.	4r	.	4r	.	8A\	om-	.	.	.	.
.	.	.	.	.	.	.	.	8E\	-nes	.	.	.	.
!	!	!LO:TX:a:t=|	!	!LO:TX:a:t=|	!	!	!	!	!	!	!	!	!
8A~\L	.	8A\L	.	8cc\L	.	8aa\L	.	4r	.	.	.	.	.
!	!	!LO:TX:a:t=|	!	!LO:TX:a:t=|	!	!	!	!	!	!	!	!	!
8E~\J	.	8E\J	.	8b\J	.	8gg\J	.	.	.	.	.	.	.
=117	=117	=117	=117	=117	=117	=117	=117	=117	=117	=117	=117	=117	=117
4r	.	4r	.	4r	.	4r	.	8Fn\	No-	.	.	.	.
.	.	.	.	.	.	.	.	8C/	-men	.	.	.	.
!	!	!	!	!LO:TX:b:t=|	!	!	!	!	!	!	!	!	!
8Fn~\L	.	8Fn\L	.	8a/L	.	8ffn\L	.	4r	.	.	.	.	.
!	!	!	!	!LO:TX:b:t=|	!	!	!	!	!	!	!	!	!
8D~\J	.	8D\J	.	8g/J	.	8ee\J	.	.	.	.	.	.	.
!	!	!	!	!	!	!LO:LB:g=original	!	!	!	!	!	!	!
=118	=118	=118	=118	=118	=118	=118	=118	=118	=118	=118	=118	=118	=118
8r	.	8r	.	16g\LL	p	16bb\LL	p	2FnT\	Ma-	.	.	.	.
.	.	.	.	16dd\	.	16bb\	.	.	.	.	.	.	.
8GG/L	.	8GG/L	.	16dd\	.	16bb\	.	.	.	.	.	.	.
.	.	.	.	16dd\JJ	.	16bb\JJ	.	.	.	.	.	.	.
8GG/	.	8GG/	.	16dd\LL	.	16bb\LL	.	.	.	.	.	.	.
.	.	.	.	16dd\	.	16bb\	.	.	.	.	.	.	.
8GG/J	.	8GG/J	.	16dd\	.	16bb\	.	.	.	.	.	.	.
.	.	.	.	16dd\JJ	.	16bb\JJ	.	.	.	.	.	.	.
=119	=119	=119	=119	=119	=119	=119	=119	=119	=119	=119	=119	=119	=119
8GG/L	.	8GG/L	.	16dd\LL	.	16bb\LL	.	2Bt\	-riae	0r	.	0r	.
.	.	.	.	16ffn\	.	16ddd\	.	.	.	.	.	.	.
8GG/	.	8GG/	.	16ff\	.	16ddd\	.	.	.	.	.	.	.
.	.	.	.	16ff\JJ	.	16ddd\JJ	.	.	.	.	.	.	.
8GG/	.	8GG/	.	16ff\LL	.	16ddd\LL	.	.	.	.	.	.	.
.	.	.	.	16ff\	.	16ddd\	.	.	.	.	.	.	.
8GG/J	.	8GG/J	.	16ff\	.	16ddd\	.	.	.	.	.	.	.
.	.	.	.	16ff\JJ	.	16ddd\JJ	.	.	.	.	.	.	.
=120	=120	=120	=120	=120	=120	=120	=120	=120	=120	=120	=120	=120	=120
!	!	!	!	!LO:TX:t=P:problem=mixed beam	!	!LO:TX:t=P:problem=mixed beam	!	!	!	!	!	!	!
8C\L	.	8C\L	.	8ee\L	f	8ccc\L	f	8c\	Ce-	.	.	.	.
!	!	!	!	!LO:TX:b:t=|	!	!	!	!	!	!	!	!	!
8E\	.	8E\	.	8e/	.	8e/	.	(8E\	.	.	.	.	.
!	!	!	!	!LO:TX:b:t=|	!	!	!	!	!	!	!	!	!
8Fn\	.	8Fn\	.	8fn/	.	8fn/	.	8Fn\)	.	.	.	.	.
!	!	!	!	!LO:TX:b:t=|	!	!	!	!	!	!	!	!	!
8F#X\J	.	8F#X\J	.	8f#X/J	.	8f#X/J	.	8F#X\	-le-	.	.	.	.
=121	=121	=121	=121	=121	=121	=121	=121	=121	=121	=121	=121	=121	=121
2GG;/	.	2GG;/	.	2G;<;>/	p	2G;/	.	2G;\	-bra-	.	.	.	.
=122	=122	=122	=122	=122	=122	=122	=122	=122	=122	=122	=122	=122	=122
!	!	!	!	!	!	!LO:TX:b:t=Da Capo.	!	!	!	!	!	!	!
!	!	!	!	!LO:TX:b:t=Da Capo.	!	!LO:TX:a:t=1	!	!LO:TX:b:t=Da Capo.	!	!LO:TX:b:t=Da Capo.	!	!LO:TX:b:t=Da Capo	!
4C/	.	4C/	.	2r	.	2r	.	2C/	-te.	.	.	.	.
!LO:TX:b:t=Da Capo.	!	!LO:TX:b:t=Da Capo.	!	!	!	!	!	!	!	!	!	!	!
4r	.	4r	.	.	.	.	.	.	.	.	.	.	.
==	==	==	==	==	==	==	==	==	==	==	==	==	==
*-	*-	*-	*-	*-	*-	*-	*-	*-	*-	*-	*-	*-	*-
!!!system-decoration: [(s1,s2)][(s3)][(s4,s5,s6)],s7
!!!RDF**kern: > = above
!!!RDF**kern: < = below
!!!RDF**dynam: p = p:
!!!RDF**dynam: f = for:
!!!ENC: Filip Voros
!!!END: 2022-03-27
!!!ENC: Leszek Kubiak
!!!END: 2022-04-07
!!!YEC: Copyright 2022 Narodowy Instytut Fryderyka Chopina (https://polishscores.org)
!!!YEM: License CC-BY-4.0 (https://creativecommons.org/licenses/by/4.0)
